assets/luts/---_M.Fahri_-_AnalogFilmPack_-_Portrait_400_Nc.cube
# M.Fahri Analog Film Pack 2023
# Follow me: https://www.instagram.com/m.fahri.photo/
TITLE "M Fahri - Portrait 400 Nc"
#LUT size
LUT_3D_SIZE 5
#LUT data points
0.035294 0.047059 0.050980
0.160784 0.062745 0.047059
0.513725 0.043137 0.019608
0.796078 0.070588 0.011765
0.980392 0.180392 0.000000
0.003922 0.176471 0.070588
0.184314 0.219608 0.031373
0.592157 0.254902 0.019608
0.827451 0.258824 0.011765
0.992157 0.305882 0.000000
0.003922 0.509804 0.184314
0.227451 0.513725 0.215686
0.533333 0.564706 0.058824
0.823529 0.541176 0.003922
0.992157 0.517647 0.003922
0.388235 0.737255 0.443137
0.435294 0.733333 0.431373
0.541176 0.741176 0.396078
0.737255 0.764706 0.274510
0.960784 0.772549 0.149020
0.694118 0.905882 0.709804
0.698039 0.898039 0.701961
0.737255 0.898039 0.701961
0.807843 0.917647 0.686275
0.894118 0.941176 0.647059
0.003922 0.043137 0.196078
0.184314 0.039216 0.200000
0.521569 0.003922 0.203922
0.796078 0.035294 0.203922
0.937255 0.200000 0.231373
0.003922 0.243137 0.254902
0.231373 0.250980 0.250980
0.588235 0.247059 0.223529
0.803922 0.266667 0.219608
0.972549 0.325490 0.243137
0.223529 0.552941 0.372549
0.325490 0.545098 0.360784
0.572549 0.568627 0.286275
0.835294 0.549020 0.200000
0.988235 0.537255 0.223529
0.450980 0.745098 0.509804
0.486275 0.745098 0.505882
0.568627 0.741176 0.494118
0.760784 0.772549 0.403922
0.960784 0.772549 0.333333
0.698039 0.901961 0.729412
0.709804 0.898039 0.725490
0.745098 0.898039 0.725490
0.807843 0.917647 0.705882
0.882353 0.929412 0.666667
0.003922 0.070588 0.529412
0.239216 0.050980 0.537255
0.619608 0.007843 0.560784
0.827451 0.105882 0.494118
0.968627 0.278431 0.486275
0.003922 0.286275 0.552941
0.235294 0.286275 0.572549
0.607843 0.305882 0.560784
0.831373 0.349020 0.525490
0.960784 0.407843 0.509804
0.258824 0.588235 0.584314
0.419608 0.592157 0.596078
0.607843 0.584314 0.596078
0.792157 0.580392 0.560784
0.956863 0.580392 0.533333
0.560784 0.772549 0.658824
0.592157 0.768627 0.662745
0.647059 0.756863 0.650980
0.772549 0.776471 0.600000
0.968627 0.772549 0.572549
0.725490 0.913725 0.780392
0.741176 0.913725 0.784314
0.772549 0.909804 0.784314
0.827451 0.921569 0.772549
0.909804 0.941176 0.741176
0.007843 0.172549 0.768627
0.294118 0.172549 0.772549
0.615686 0.243137 0.772549
0.835294 0.329412 0.768627
0.960784 0.439216 0.737255
0.094118 0.333333 0.772549
0.345098 0.341176 0.780392
0.623529 0.400000 0.780392
0.835294 0.462745 0.772549
0.968627 0.541176 0.749020
0.250980 0.584314 0.756863
0.388235 0.588235 0.760784
0.611765 0.600000 0.772549
0.807843 0.647059 0.780392
0.949020 0.666667 0.760784
0.545098 0.784314 0.784314
0.592157 0.788235 0.796078
0.682353 0.784314 0.788235
0.796078 0.788235 0.792157
0.913725 0.784314 0.772549
0.756863 0.925490 0.858824
0.760784 0.913725 0.854902
0.803922 0.929412 0.862745
0.843137 0.901961 0.843137
0.917647 0.941176 0.839216
0.458824 0.439216 0.941176
0.521569 0.450980 0.933333
0.674510 0.490196 0.925490
0.843137 0.576471 0.929412
0.984314 0.635294 0.933333
0.486275 0.517647 0.933333
0.545098 0.533333 0.937255
0.682353 0.564706 0.933333
0.839216 0.619608 0.925490
0.960784 0.639216 0.909804
0.509804 0.662745 0.933333
0.545098 0.662745 0.925490
0.678431 0.674510 0.929412
0.831373 0.705882 0.921569
0.972549 0.745098 0.941176
0.537255 0.800000 0.925490
0.576471 0.803922 0.917647
0.639216 0.796078 0.913725
0.807843 0.807843 0.945098
0.968627 0.839216 0.949020
0.737255 0.949020 0.949020
0.752941 0.952941 0.956863
0.792157 0.941176 0.941176
0.854902 0.945098 0.952941
0.968627 0.964706 0.968627
