assets/luts/---_M.Fahri_-_AnalogFilmPack_-_Portrait_400_Nc.cube
# M.Fahri Analog Film Pack 2023
# Follow me: https://www.instagram.com/m.fahri.photo/
TITLE "M Fahri - Portrait 400 Nc"
#LUT size
LUT_3D_SIZE 9
#LUT data points
0.035294 0.047059 0.050980
0.090196 0.066667 0.050980
0.160784 0.062745 0.047059
0.317647 0.054902 0.039216
0.513725 0.043137 0.019608
0.674510 0.035294 0.011765
0.796078 0.070588 0.011765
0.894118 0.129412 0.007843
0.980392 0.180392 0.000000
0.023529 0.098039 0.058824
0.078431 0.101961 0.058824
0.180392 0.109804 0.039216
0.341176 0.113725 0.039216
0.537255 0.121569 0.019608
0.694118 0.125490 0.003922
0.800000 0.149020 0.007843
0.894118 0.180392 0.007843
0.960784 0.207843 0.000000
0.003922 0.176471 0.070588
0.054902 0.196078 0.086275
0.184314 0.219608 0.031373
0.380392 0.250980 0.011765
0.592157 0.254902 0.019608
0.725490 0.254902 0.003922
0.827451 0.258824 0.011765
0.917647 0.278431 0.019608
0.992157 0.305882 0.000000
0.000000 0.349020 0.133333
0.015686 0.349020 0.125490
0.192157 0.372549 0.098039
0.376471 0.407843 0.011765
0.584314 0.419608 0.007843
0.737255 0.411765 0.003922
0.847059 0.392157 0.003922
0.929412 0.400000 0.007843
0.984314 0.407843 0.003922
0.003922 0.509804 0.184314
0.062745 0.513725 0.207843
0.227451 0.513725 0.215686
0.384314 0.537255 0.125490
0.533333 0.564706 0.058824
0.682353 0.560784 0.015686
0.823529 0.541176 0.003922
0.925490 0.529412 0.003922
0.992157 0.517647 0.003922
0.180392 0.631373 0.294118
0.247059 0.639216 0.329412
0.313725 0.631373 0.313725
0.396078 0.639216 0.290196
0.513725 0.654902 0.231373
0.643137 0.674510 0.094118
0.776471 0.686275 0.019608
0.901961 0.674510 0.007843
0.980392 0.662745 0.007843
0.388235 0.737255 0.443137
0.400000 0.733333 0.431373
0.435294 0.733333 0.431373
0.486275 0.733333 0.423529
0.541176 0.741176 0.396078
0.627451 0.752941 0.345098
0.737255 0.764706 0.274510
0.866667 0.784314 0.145098
0.960784 0.772549 0.149020
0.541176 0.823529 0.564706
0.545098 0.819608 0.564706
0.564706 0.819608 0.564706
0.588235 0.819608 0.564706
0.623529 0.819608 0.556863
0.674510 0.831373 0.525490
0.741176 0.843137 0.501961
0.839216 0.854902 0.450980
0.929412 0.870588 0.411765
0.694118 0.905882 0.709804
0.690196 0.898039 0.701961
0.698039 0.898039 0.701961
0.717647 0.901961 0.709804
0.737255 0.898039 0.701961
0.772549 0.913725 0.705882
0.807843 0.917647 0.686275
0.858824 0.929412 0.658824
0.894118 0.941176 0.647059
0.023529 0.074510 0.094118
0.078431 0.058824 0.094118
0.168627 0.054902 0.098039
0.317647 0.023529 0.090196
0.505882 0.019608 0.082353
0.670588 0.007843 0.082353
0.792157 0.066667 0.082353
0.894118 0.137255 0.086275
0.949020 0.168627 0.098039
0.019608 0.082353 0.086275
0.074510 0.098039 0.098039
0.188235 0.105882 0.098039
0.349020 0.098039 0.090196
0.537255 0.094118 0.070588
0.694118 0.117647 0.070588
0.800000 0.137255 0.070588
0.894118 0.184314 0.078431
0.972549 0.223529 0.094118
0.015686 0.211765 0.145098
0.062745 0.211765 0.137255
0.188235 0.227451 0.121569
0.403922 0.258824 0.066667
0.596078 0.258824 0.043137
0.729412 0.250980 0.031373
0.823529 0.258824 0.043137
0.913725 0.278431 0.062745
0.988235 0.309804 0.101961
0.007843 0.384314 0.196078
0.058824 0.376471 0.188235
0.207843 0.380392 0.176471
0.400000 0.411765 0.105882
0.607843 0.443137 0.011765
0.749020 0.411765 0.003922
0.843137 0.403922 0.015686
0.929412 0.392157 0.011765
0.984314 0.403922 0.035294
0.062745 0.525490 0.258824
0.133333 0.529412 0.266667
0.254902 0.525490 0.254902
0.380392 0.537255 0.215686
0.549020 0.568627 0.109804
0.709804 0.584314 0.007843
0.831373 0.549020 0.007843
0.937255 0.525490 0.011765
0.996078 0.521569 0.015686
0.227451 0.635294 0.345098
0.278431 0.643137 0.352941
0.337255 0.635294 0.349020
0.419608 0.643137 0.329412
0.521569 0.654902 0.278431
0.639216 0.674510 0.203922
0.796078 0.694118 0.043137
0.905882 0.678431 0.039216
0.992157 0.654902 0.066667
0.392157 0.737255 0.447059
0.411765 0.733333 0.458824
0.450980 0.733333 0.458824
0.498039 0.733333 0.447059
0.549020 0.741176 0.423529
0.623529 0.752941 0.380392
0.745098 0.768627 0.317647
0.866667 0.776471 0.243137
0.960784 0.776471 0.227451
0.545098 0.819608 0.576471
0.552941 0.819608 0.576471
0.576471 0.819608 0.580392
0.600000 0.819608 0.580392
0.627451 0.819608 0.568627
0.678431 0.831373 0.549020
0.745098 0.843137 0.517647
0.835294 0.858824 0.470588
0.933333 0.874510 0.415686
0.690196 0.901961 0.709804
0.694118 0.901961 0.713725
0.709804 0.905882 0.717647
0.717647 0.898039 0.709804
0.749020 0.901961 0.721569
0.768627 0.909804 0.705882
0.811765 0.921569 0.698039
0.858824 0.937255 0.682353
0.886275 0.937255 0.650980
0.003922 0.043137 0.196078
0.078431 0.039216 0.192157
0.184314 0.039216 0.200000
0.333333 0.007843 0.203922
0.521569 0.003922 0.203922
0.694118 0.007843 0.200000
0.796078 0.035294 0.203922
0.882353 0.152941 0.223529
0.937255 0.200000 0.231373
0.007843 0.109804 0.215686
0.039216 0.109804 0.215686
0.200000 0.105882 0.219608
0.376471 0.074510 0.219608
0.549020 0.031373 0.207843
0.694118 0.050980 0.207843
0.792157 0.133333 0.215686
0.886275 0.192157 0.219608
0.968627 0.254902 0.239216
0.003922 0.243137 0.254902
0.058824 0.243137 0.250980
0.231373 0.250980 0.250980
0.419608 0.254902 0.239216
0.588235 0.247059 0.223529
0.709804 0.247059 0.211765
0.803922 0.266667 0.219608
0.898039 0.282353 0.223529
0.972549 0.325490 0.243137
0.050980 0.407843 0.309804
0.137255 0.403922 0.305882
0.278431 0.411765 0.298039
0.439216 0.435294 0.270588
0.619608 0.427451 0.227451
0.741176 0.415686 0.211765
0.823529 0.407843 0.207843
0.913725 0.400000 0.215686
0.984314 0.419608 0.239216
0.223529 0.552941 0.372549
0.262745 0.552941 0.376471
0.325490 0.545098 0.360784
0.427451 0.549020 0.345098
0.572549 0.568627 0.286275
0.698039 0.572549 0.239216
0.835294 0.549020 0.200000
0.921569 0.533333 0.211765
0.988235 0.537255 0.223529
0.317647 0.650980 0.419608
0.356863 0.658824 0.435294
0.407843 0.650980 0.431373
0.458824 0.647059 0.419608
0.552941 0.658824 0.384314
0.654902 0.674510 0.325490
0.792157 0.698039 0.262745
0.898039 0.678431 0.258824
0.960784 0.662745 0.250980
0.450980 0.745098 0.509804
0.458824 0.749020 0.505882
0.486275 0.745098 0.505882
0.525490 0.737255 0.505882
0.568627 0.741176 0.494118
0.639216 0.752941 0.454902
0.760784 0.772549 0.403922
0.874510 0.788235 0.349020
0.960784 0.772549 0.333333
0.568627 0.823529 0.607843
0.572549 0.823529 0.607843
0.592157 0.819608 0.607843
0.615686 0.823529 0.611765
0.643137 0.823529 0.596078
0.690196 0.827451 0.580392
0.749020 0.839216 0.560784
0.850980 0.854902 0.505882
0.921569 0.866667 0.474510
0.698039 0.901961 0.729412
0.705882 0.901961 0.729412
0.709804 0.898039 0.725490
0.733333 0.905882 0.733333
0.745098 0.898039 0.725490
0.776471 0.909804 0.729412
0.807843 0.917647 0.705882
0.862745 0.929412 0.694118
0.882353 0.929412 0.666667
0.007843 0.050980 0.360784
0.035294 0.058824 0.372549
0.231373 0.023529 0.376471
0.388235 0.007843 0.376471
0.580392 0.003922 0.384314
0.725490 0.003922 0.356863
0.815686 0.007843 0.333333
0.901961 0.039216 0.325490
0.956863 0.211765 0.352941
0.007843 0.117647 0.380392
0.019608 0.113725 0.380392
0.215686 0.117647 0.388235
0.419608 0.086275 0.403922
0.596078 0.058824 0.392157
0.721569 0.050980 0.360784
0.819608 0.070588 0.341176
0.890196 0.207843 0.356863
0.960784 0.301961 0.384314
0.007843 0.262745 0.403922
0.007843 0.262745 0.407843
0.215686 0.266667 0.423529
0.450980 0.270588 0.435294
0.596078 0.266667 0.407843
0.709804 0.266667 0.392157
0.811765 0.266667 0.364706
0.890196 0.313725 0.368627
0.956863 0.372549 0.392157
0.007843 0.427451 0.431373
0.078431 0.443137 0.443137
0.286275 0.431373 0.447059
0.470588 0.443137 0.450980
0.615686 0.443137 0.435294
0.717647 0.423529 0.407843
0.807843 0.423529 0.392157
0.894118 0.427451 0.392157
0.964706 0.447059 0.392157
0.305882 0.584314 0.486275
0.345098 0.584314 0.494118
0.411765 0.576471 0.494118
0.494118 0.564706 0.490196
0.588235 0.564706 0.462745
0.701961 0.568627 0.427451
0.819608 0.556863 0.403922
0.905882 0.549020 0.396078
0.972549 0.552941 0.400000
0.415686 0.674510 0.525490
0.431373 0.678431 0.537255
0.470588 0.670588 0.529412
0.521569 0.662745 0.525490
0.584314 0.662745 0.509804
0.666667 0.678431 0.466667
0.792157 0.686275 0.435294
0.898039 0.674510 0.419608
0.968627 0.662745 0.415686
0.509804 0.756863 0.584314
0.517647 0.760784 0.584314
0.533333 0.756863 0.576471
0.564706 0.749020 0.572549
0.611765 0.749020 0.572549
0.666667 0.756863 0.541176
0.764706 0.776471 0.509804
0.870588 0.784314 0.474510
0.960784 0.772549 0.462745
0.600000 0.827451 0.650980
0.607843 0.827451 0.650980
0.623529 0.831373 0.654902
0.643137 0.827451 0.654902
0.666667 0.827451 0.647059
0.705882 0.827451 0.639216
0.756863 0.835294 0.607843
0.850980 0.854902 0.588235
0.949020 0.874510 0.545098
0.705882 0.901961 0.745098
0.701961 0.898039 0.737255
0.725490 0.905882 0.749020
0.737255 0.905882 0.752941
0.760784 0.905882 0.752941
0.780392 0.905882 0.745098
0.811765 0.909804 0.721569
0.854902 0.921569 0.701961
0.901961 0.941176 0.709804
0.003922 0.070588 0.529412
0.007843 0.066667 0.533333
0.239216 0.050980 0.537255
0.450980 0.019608 0.552941
0.619608 0.007843 0.560784
0.737255 0.007843 0.525490
0.827451 0.105882 0.494118
0.909804 0.200000 0.486275
0.968627 0.278431 0.486275
0.000000 0.133333 0.537255
0.003922 0.133333 0.541176
0.235294 0.145098 0.552941
0.458824 0.137255 0.568627
0.615686 0.101961 0.560784
0.741176 0.141176 0.537255
0.839216 0.231373 0.513725
0.909804 0.278431 0.498039
0.972549 0.321569 0.490196
0.003922 0.286275 0.552941
0.007843 0.274510 0.564706
0.235294 0.286275 0.572549
0.458824 0.294118 0.576471
0.607843 0.305882 0.560784
0.733333 0.325490 0.545098
0.831373 0.349020 0.525490
0.901961 0.380392 0.513725
0.960784 0.407843 0.509804
0.015686 0.443137 0.572549
0.035294 0.443137 0.572549
0.258824 0.443137 0.572549
0.458824 0.454902 0.580392
0.611765 0.466667 0.580392
0.717647 0.462745 0.556863
0.803922 0.462745 0.545098
0.890196 0.478431 0.529412
0.960784 0.490196 0.521569
0.258824 0.588235 0.584314
0.317647 0.588235 0.592157
0.419608 0.592157 0.596078
0.509804 0.580392 0.596078
0.607843 0.584314 0.596078
0.705882 0.592157 0.576471
0.792157 0.580392 0.560784
0.870588 0.568627 0.541176
0.956863 0.580392 0.533333
0.454902 0.694118 0.619608
0.470588 0.694118 0.623529
0.513725 0.690196 0.623529
0.568627 0.678431 0.623529
0.619608 0.682353 0.619608
0.698039 0.686275 0.592157
0.800000 0.686275 0.568627
0.882353 0.674510 0.552941
0.964706 0.670588 0.545098
0.560784 0.772549 0.658824
0.568627 0.772549 0.662745
0.592157 0.768627 0.662745
0.615686 0.760784 0.654902
0.647059 0.756863 0.650980
0.682353 0.760784 0.627451
0.772549 0.776471 0.600000
0.870588 0.784314 0.580392
0.968627 0.772549 0.572549
0.635294 0.839216 0.701961
0.643137 0.839216 0.709804
0.654902 0.835294 0.705882
0.670588 0.835294 0.705882
0.698039 0.831373 0.705882
0.729412 0.831373 0.698039
0.772549 0.839216 0.674510
0.847059 0.854902 0.654902
0.929412 0.866667 0.639216
0.725490 0.913725 0.780392
0.733333 0.913725 0.780392
0.741176 0.913725 0.784314
0.752941 0.909804 0.784314
0.772549 0.909804 0.784314
0.792157 0.905882 0.776471
0.827451 0.921569 0.772549
0.870588 0.925490 0.749020
0.909804 0.941176 0.741176
0.003922 0.101961 0.674510
0.000000 0.086275 0.670588
0.247059 0.094118 0.674510
0.450980 0.101961 0.674510
0.623529 0.149020 0.674510
0.741176 0.152941 0.670588
0.839216 0.203922 0.658824
0.913725 0.321569 0.635294
0.992157 0.400000 0.623529
0.011765 0.168627 0.670588
0.011765 0.168627 0.674510
0.254902 0.176471 0.678431
0.458824 0.188235 0.678431
0.623529 0.211765 0.678431
0.749020 0.243137 0.682353
0.835294 0.294118 0.658824
0.913725 0.352941 0.635294
0.972549 0.415686 0.627451
0.015686 0.301961 0.674510
0.023529 0.294118 0.682353
0.270588 0.313725 0.682353
0.470588 0.329412 0.686275
0.623529 0.349020 0.682353
0.745098 0.384314 0.678431
0.831373 0.407843 0.658824
0.905882 0.439216 0.643137
0.968627 0.474510 0.631373
0.011765 0.443137 0.670588
0.129412 0.454902 0.678431
0.309804 0.454902 0.678431
0.470588 0.466667 0.682353
0.619608 0.486275 0.686275
0.725490 0.498039 0.682353
0.815686 0.517647 0.670588
0.890196 0.533333 0.650980
0.960784 0.537255 0.639216
0.196078 0.580392 0.670588
0.270588 0.580392 0.674510
0.372549 0.580392 0.678431
0.498039 0.584314 0.686275
0.611765 0.596078 0.686275
0.709804 0.607843 0.690196
0.792157 0.611765 0.678431
0.866667 0.611765 0.662745
0.949020 0.619608 0.650980
0.419608 0.694118 0.690196
0.454902 0.694118 0.694118
0.494118 0.694118 0.698039
0.556863 0.690196 0.694118
0.627451 0.698039 0.698039
0.709804 0.701961 0.698039
0.792157 0.705882 0.682353
0.874510 0.690196 0.670588
0.929412 0.682353 0.654902
0.568627 0.780392 0.721569
0.588235 0.784314 0.725490
0.615686 0.784314 0.729412
0.643137 0.780392 0.729412
0.678431 0.776471 0.725490
0.721569 0.772549 0.713725
0.788235 0.784314 0.701961
0.866667 0.768627 0.690196
0.941176 0.776471 0.674510
0.666667 0.850980 0.764706
0.666667 0.850980 0.764706
0.686275 0.850980 0.768627
0.705882 0.847059 0.768627
0.729412 0.847059 0.764706
0.756863 0.843137 0.756863
0.792157 0.843137 0.741176
0.854902 0.854902 0.725490
0.949020 0.866667 0.717647
0.749020 0.917647 0.819608
0.752941 0.921569 0.823529
0.760784 0.921569 0.819608
0.772549 0.917647 0.819608
0.784314 0.909804 0.815686
0.807843 0.913725 0.815686
0.835294 0.917647 0.811765
0.878431 0.925490 0.792157
0.933333 0.945098 0.788235
0.007843 0.172549 0.768627
0.105882 0.180392 0.772549
0.294118 0.172549 0.772549
0.470588 0.196078 0.772549
0.615686 0.243137 0.772549
0.741176 0.282353 0.772549
0.835294 0.329412 0.768627
0.901961 0.364706 0.745098
0.960784 0.439216 0.737255
0.035294 0.227451 0.772549
0.149020 0.231373 0.776471
0.313725 0.231373 0.780392
0.474510 0.250980 0.780392
0.615686 0.286275 0.776471
0.741176 0.345098 0.776471
0.839216 0.376471 0.776471
0.913725 0.411765 0.756863
0.956863 0.466667 0.741176
0.094118 0.333333 0.772549
0.200000 0.345098 0.776471
0.345098 0.341176 0.780392
0.490196 0.360784 0.780392
0.623529 0.400000 0.780392
0.737255 0.431373 0.776471
0.835294 0.462745 0.772549
0.909804 0.486275 0.764706
0.968627 0.541176 0.749020
0.243137 0.478431 0.768627
0.301961 0.478431 0.768627
0.376471 0.470588 0.772549
0.501961 0.482353 0.776471
0.619608 0.505882 0.776471
0.729412 0.533333 0.776471
0.823529 0.549020 0.776471
0.890196 0.572549 0.764706
0.952941 0.596078 0.749020
0.250980 0.584314 0.756863
0.290196 0.584314 0.756863
0.388235 0.588235 0.760784
0.501961 0.588235 0.768627
0.611765 0.600000 0.772549
0.717647 0.627451 0.776471
0.807843 0.647059 0.780392
0.878431 0.654902 0.764706
0.949020 0.666667 0.760784
0.392157 0.694118 0.760784
0.411765 0.690196 0.764706
0.466667 0.690196 0.768627
0.525490 0.690196 0.764706
0.615686 0.698039 0.768627
0.709804 0.709804 0.780392
0.796078 0.721569 0.780392
0.870588 0.717647 0.768627
0.929412 0.717647 0.760784
0.545098 0.784314 0.784314
0.560784 0.784314 0.788235
0.592157 0.788235 0.796078
0.631373 0.784314 0.792157
0.682353 0.784314 0.788235
0.741176 0.784314 0.792157
0.796078 0.788235 0.792157
0.870588 0.788235 0.780392
0.913725 0.784314 0.772549
0.666667 0.858824 0.819608
0.670588 0.858824 0.819608
0.698039 0.862745 0.823529
0.721569 0.862745 0.823529
0.749020 0.858824 0.823529
0.788235 0.854902 0.819608
0.819608 0.850980 0.815686
0.878431 0.862745 0.800000
0.949020 0.862745 0.796078
0.756863 0.925490 0.858824
0.760784 0.925490 0.858824
0.760784 0.913725 0.854902
0.776471 0.917647 0.854902
0.803922 0.929412 0.862745
0.823529 0.917647 0.854902
0.843137 0.901961 0.843137
0.886275 0.921569 0.839216
0.917647 0.941176 0.839216
0.235294 0.258824 0.862745
0.305882 0.274510 0.862745
0.392157 0.286275 0.862745
0.513725 0.309804 0.862745
0.627451 0.349020 0.858824
0.737255 0.407843 0.854902
0.835294 0.466667 0.854902
0.913725 0.482353 0.850980
0.968627 0.490196 0.854902
0.274510 0.321569 0.858824
0.317647 0.325490 0.862745
0.415686 0.345098 0.862745
0.525490 0.360784 0.866667
0.635294 0.380392 0.858824
0.741176 0.435294 0.858824
0.835294 0.478431 0.858824
0.917647 0.513725 0.854902
0.968627 0.545098 0.843137
0.305882 0.400000 0.858824
0.360784 0.407843 0.862745
0.431373 0.411765 0.866667
0.533333 0.431373 0.862745
0.643137 0.462745 0.858824
0.741176 0.501961 0.854902
0.831373 0.537255 0.854902
0.913725 0.549020 0.854902
0.949020 0.576471 0.850980
0.360784 0.505882 0.850980
0.403922 0.517647 0.854902
0.454902 0.513725 0.858824
0.541176 0.525490 0.858824
0.643137 0.549020 0.858824
0.737255 0.580392 0.850980
0.827451 0.600000 0.854902
0.894118 0.615686 0.850980
0.945098 0.631373 0.843137
0.360784 0.611765 0.843137
0.392157 0.611765 0.843137
0.454902 0.619608 0.847059
0.541176 0.623529 0.850980
0.627451 0.619608 0.854902
0.725490 0.650980 0.854902
0.819608 0.670588 0.854902
0.882353 0.682353 0.850980
0.945098 0.694118 0.847059
0.396078 0.701961 0.843137
0.407843 0.698039 0.843137
0.450980 0.698039 0.843137
0.517647 0.698039 0.843137
0.615686 0.701961 0.850980
0.705882 0.709804 0.850980
0.803922 0.733333 0.858824
0.882353 0.749020 0.858824
0.949020 0.760784 0.854902
0.509804 0.788235 0.850980
0.533333 0.788235 0.854902
0.552941 0.788235 0.854902
0.600000 0.788235 0.858824
0.650980 0.788235 0.854902
0.725490 0.788235 0.854902
0.792157 0.788235 0.858824
0.886275 0.807843 0.866667
0.952941 0.815686 0.862745
0.639216 0.862745 0.874510
0.643137 0.858824 0.866667
0.666667 0.862745 0.870588
0.694118 0.866667 0.874510
0.733333 0.866667 0.874510
0.776471 0.866667 0.878431
0.839216 0.874510 0.886275
0.890196 0.874510 0.878431
0.960784 0.874510 0.870588
0.752941 0.933333 0.905882
0.768627 0.937255 0.905882
0.764706 0.921569 0.898039
0.780392 0.921569 0.894118
0.811765 0.941176 0.909804
0.831373 0.921569 0.905882
0.858824 0.921569 0.898039
0.898039 0.941176 0.898039
0.933333 0.941176 0.901961
0.458824 0.439216 0.941176
0.474510 0.439216 0.933333
0.521569 0.450980 0.933333
0.600000 0.474510 0.937255
0.674510 0.490196 0.925490
0.764706 0.537255 0.925490
0.843137 0.576471 0.929412
0.917647 0.596078 0.925490
0.984314 0.635294 0.933333
0.458824 0.458824 0.933333
0.486275 0.470588 0.937255
0.533333 0.478431 0.937255
0.600000 0.494118 0.937255
0.682353 0.521569 0.933333
0.764706 0.552941 0.933333
0.839216 0.580392 0.925490
0.913725 0.611765 0.925490
0.980392 0.643137 0.933333
0.486275 0.517647 0.933333
0.513725 0.533333 0.945098
0.545098 0.533333 0.937255
0.607843 0.545098 0.937255
0.682353 0.564706 0.933333
0.756863 0.588235 0.925490
0.839216 0.619608 0.925490
0.909804 0.627451 0.913725
0.960784 0.639216 0.909804
0.498039 0.584314 0.933333
0.501961 0.584314 0.925490
0.549020 0.592157 0.933333
0.603922 0.596078 0.925490
0.682353 0.619608 0.929412
0.752941 0.635294 0.921569
0.835294 0.662745 0.925490
0.905882 0.682353 0.925490
0.960784 0.698039 0.933333
0.509804 0.662745 0.933333
0.517647 0.662745 0.929412
0.545098 0.662745 0.925490
0.600000 0.670588 0.929412
0.678431 0.674510 0.929412
0.752941 0.686275 0.925490
0.831373 0.705882 0.921569
0.901961 0.725490 0.925490
0.972549 0.745098 0.941176
0.482353 0.733333 0.933333
0.474510 0.725490 0.917647
0.521569 0.729412 0.921569
0.580392 0.729412 0.925490
0.658824 0.733333 0.925490
0.737255 0.737255 0.933333
0.827451 0.756863 0.933333
0.901961 0.772549 0.933333
0.941176 0.772549 0.905882
0.537255 0.800000 0.925490
0.545098 0.803922 0.929412
0.576471 0.803922 0.917647
0.600000 0.803922 0.929412
0.639216 0.796078 0.913725
0.725490 0.803922 0.933333
0.807843 0.807843 0.945098
0.898039 0.827451 0.941176
0.968627 0.839216 0.949020
0.643137 0.878431 0.937255
0.647059 0.878431 0.933333
0.670588 0.886275 0.941176
0.686275 0.878431 0.929412
0.717647 0.882353 0.941176
0.756863 0.882353 0.945098
0.807843 0.874510 0.949020
0.882353 0.886275 0.945098
0.960784 0.898039 0.949020
0.737255 0.949020 0.949020
0.737255 0.945098 0.949020
0.752941 0.952941 0.956863
0.776471 0.941176 0.929412
0.792157 0.941176 0.941176
0.811765 0.937255 0.952941
0.854902 0.945098 0.952941
0.905882 0.945098 0.945098
0.968627 0.964706 0.968627
