assets/luts/---_M.Fahri_-_AnalogFilmPack_-_Portrait_400_Nc.cube
# M.Fahri Analog Film Pack 2023
# Follow me: https://www.instagram.com/m.fahri.photo/
TITLE "M Fahri - Portrait 400 Nc"
#LUT size
LUT_3D_SIZE 25
#LUT data points
0.035294 0.047059 0.050980
0.039216 0.043137 0.047059
0.066667 0.054902 0.050980
0.090196 0.066667 0.050980
0.117647 0.074510 0.050980
0.141176 0.070588 0.047059
0.160784 0.062745 0.047059
0.188235 0.054902 0.043137
0.254902 0.054902 0.039216
0.317647 0.054902 0.039216
0.388235 0.050980 0.031373
0.454902 0.047059 0.023529
0.513725 0.043137 0.019608
0.572549 0.031373 0.007843
0.627451 0.023529 0.000000
0.674510 0.035294 0.011765
0.713725 0.050980 0.023529
0.756863 0.062745 0.019608
0.796078 0.070588 0.011765
0.831373 0.082353 0.000000
0.862745 0.109804 0.003922
0.894118 0.129412 0.007843
0.925490 0.149020 0.007843
0.956863 0.168627 0.003922
0.980392 0.180392 0.000000
0.031373 0.062745 0.050980
0.039216 0.062745 0.050980
0.062745 0.066667 0.054902
0.090196 0.070588 0.058824
0.113725 0.074510 0.050980
0.141176 0.074510 0.047059
0.164706 0.070588 0.043137
0.203922 0.074510 0.043137
0.266667 0.074510 0.043137
0.325490 0.070588 0.039216
0.392157 0.066667 0.035294
0.458824 0.062745 0.027451
0.517647 0.058824 0.019608
0.580392 0.054902 0.007843
0.639216 0.050980 0.000000
0.678431 0.058824 0.007843
0.721569 0.070588 0.015686
0.760784 0.082353 0.015686
0.796078 0.090196 0.007843
0.831373 0.105882 0.003922
0.862745 0.121569 0.007843
0.894118 0.141176 0.011765
0.925490 0.160784 0.007843
0.956863 0.176471 0.003922
0.972549 0.184314 0.003922
0.027451 0.078431 0.054902
0.039216 0.082353 0.054902
0.058824 0.082353 0.054902
0.086275 0.082353 0.054902
0.113725 0.082353 0.050980
0.137255 0.078431 0.043137
0.172549 0.082353 0.043137
0.223529 0.090196 0.043137
0.282353 0.094118 0.043137
0.337255 0.094118 0.039216
0.403922 0.094118 0.035294
0.466667 0.094118 0.027451
0.525490 0.090196 0.019608
0.588235 0.090196 0.007843
0.647059 0.086275 0.000000
0.686275 0.094118 0.003922
0.725490 0.101961 0.011765
0.764706 0.113725 0.011765
0.796078 0.121569 0.007843
0.835294 0.129412 0.007843
0.862745 0.145098 0.007843
0.894118 0.156863 0.007843
0.925490 0.172549 0.007843
0.952941 0.188235 0.003922
0.964706 0.192157 0.003922
0.023529 0.098039 0.058824
0.035294 0.098039 0.058824
0.054902 0.101961 0.058824
0.078431 0.101961 0.058824
0.105882 0.101961 0.050980
0.137255 0.101961 0.047059
0.180392 0.109804 0.039216
0.235294 0.109804 0.039216
0.286275 0.113725 0.039216
0.341176 0.113725 0.039216
0.407843 0.117647 0.031373
0.474510 0.121569 0.027451
0.537255 0.121569 0.019608
0.600000 0.117647 0.011765
0.654902 0.117647 0.003922
0.694118 0.125490 0.003922
0.729412 0.133333 0.007843
0.768627 0.141176 0.007843
0.800000 0.149020 0.007843
0.839216 0.156863 0.003922
0.866667 0.168627 0.007843
0.894118 0.180392 0.007843
0.929412 0.192157 0.003922
0.956863 0.203922 0.000000
0.960784 0.207843 0.000000
0.015686 0.117647 0.054902
0.031373 0.117647 0.058824
0.050980 0.125490 0.062745
0.070588 0.125490 0.066667
0.098039 0.125490 0.062745
0.137255 0.133333 0.050980
0.184314 0.145098 0.035294
0.235294 0.149020 0.035294
0.294118 0.149020 0.035294
0.352941 0.156863 0.035294
0.423529 0.156863 0.031373
0.494118 0.156863 0.031373
0.556863 0.156863 0.027451
0.619608 0.152941 0.019608
0.670588 0.160784 0.007843
0.705882 0.164706 0.003922
0.741176 0.172549 0.007843
0.776471 0.180392 0.007843
0.807843 0.184314 0.007843
0.843137 0.188235 0.003922
0.874510 0.200000 0.011765
0.901961 0.211765 0.015686
0.933333 0.223529 0.015686
0.960784 0.231373 0.003922
0.968627 0.235294 0.000000
0.007843 0.133333 0.054902
0.023529 0.141176 0.062745
0.043137 0.145098 0.066667
0.062745 0.149020 0.070588
0.086275 0.156863 0.070588
0.137255 0.168627 0.050980
0.188235 0.184314 0.035294
0.239216 0.192157 0.023529
0.298039 0.196078 0.023529
0.368627 0.207843 0.023529
0.447059 0.211765 0.027451
0.513725 0.207843 0.027451
0.580392 0.200000 0.027451
0.635294 0.200000 0.023529
0.678431 0.207843 0.011765
0.721569 0.207843 0.007843
0.756863 0.215686 0.007843
0.788235 0.219608 0.011765
0.815686 0.223529 0.011765
0.850980 0.227451 0.011765
0.882353 0.239216 0.015686
0.909804 0.247059 0.023529
0.937255 0.258824 0.019608
0.964706 0.266667 0.011765
0.980392 0.270588 0.000000
0.003922 0.176471 0.070588
0.015686 0.180392 0.070588
0.035294 0.188235 0.082353
0.054902 0.196078 0.086275
0.086275 0.203922 0.078431
0.137255 0.211765 0.050980
0.184314 0.219608 0.031373
0.235294 0.231373 0.011765
0.301961 0.239216 0.011765
0.380392 0.250980 0.011765
0.462745 0.262745 0.015686
0.537255 0.262745 0.015686
0.592157 0.254902 0.019608
0.647059 0.247059 0.019608
0.690196 0.250980 0.011765
0.725490 0.254902 0.003922
0.764706 0.254902 0.003922
0.796078 0.254902 0.007843
0.827451 0.258824 0.011765
0.858824 0.262745 0.011765
0.890196 0.270588 0.015686
0.917647 0.278431 0.019608
0.941176 0.286275 0.015686
0.968627 0.298039 0.011765
0.992157 0.305882 0.000000
0.003922 0.235294 0.090196
0.003922 0.231373 0.090196
0.015686 0.239216 0.094118
0.035294 0.247059 0.094118
0.082353 0.254902 0.086275
0.137255 0.262745 0.062745
0.184314 0.266667 0.039216
0.231373 0.274510 0.011765
0.313725 0.290196 0.003922
0.396078 0.309804 0.007843
0.486275 0.325490 0.007843
0.552941 0.321569 0.011765
0.603922 0.313725 0.011765
0.662745 0.305882 0.011765
0.701961 0.305882 0.007843
0.729412 0.305882 0.003922
0.764706 0.301961 0.003922
0.800000 0.301961 0.003922
0.831373 0.301961 0.003922
0.866667 0.301961 0.003922
0.898039 0.305882 0.003922
0.921569 0.317647 0.011765
0.949020 0.325490 0.007843
0.976471 0.333333 0.003922
0.992157 0.341176 0.000000
0.003922 0.294118 0.113725
0.003922 0.294118 0.113725
0.000000 0.294118 0.109804
0.019608 0.294118 0.105882
0.078431 0.305882 0.098039
0.133333 0.317647 0.086275
0.184314 0.321569 0.066667
0.243137 0.329412 0.043137
0.309804 0.341176 0.015686
0.388235 0.360784 0.007843
0.474510 0.380392 0.007843
0.545098 0.376471 0.007843
0.603922 0.372549 0.007843
0.662745 0.368627 0.007843
0.705882 0.364706 0.007843
0.733333 0.360784 0.003922
0.768627 0.356863 0.003922
0.807843 0.349020 0.003922
0.839216 0.349020 0.003922
0.874510 0.349020 0.003922
0.901961 0.352941 0.003922
0.925490 0.360784 0.007843
0.952941 0.364706 0.007843
0.976471 0.372549 0.003922
0.988235 0.376471 0.003922
0.000000 0.349020 0.133333
0.000000 0.345098 0.133333
0.000000 0.345098 0.129412
0.015686 0.349020 0.125490
0.078431 0.360784 0.121569
0.137255 0.364706 0.113725
0.192157 0.372549 0.098039
0.254902 0.376471 0.078431
0.317647 0.392157 0.035294
0.376471 0.407843 0.011765
0.454902 0.419608 0.007843
0.521569 0.419608 0.007843
0.584314 0.419608 0.007843
0.650980 0.419608 0.007843
0.694118 0.415686 0.003922
0.737255 0.411765 0.003922
0.772549 0.403922 0.003922
0.811765 0.396078 0.003922
0.847059 0.392157 0.003922
0.882353 0.392157 0.000000
0.909804 0.396078 0.003922
0.929412 0.400000 0.007843
0.952941 0.400000 0.007843
0.976471 0.403922 0.003922
0.984314 0.407843 0.003922
0.000000 0.407843 0.152941
0.003922 0.407843 0.152941
0.007843 0.411765 0.152941
0.019608 0.411765 0.149020
0.074510 0.419608 0.145098
0.137255 0.423529 0.141176
0.200000 0.423529 0.141176
0.262745 0.431373 0.117647
0.317647 0.443137 0.066667
0.364706 0.454902 0.023529
0.431373 0.462745 0.003922
0.501961 0.466667 0.007843
0.564706 0.470588 0.007843
0.627451 0.470588 0.007843
0.674510 0.470588 0.003922
0.717647 0.466667 0.003922
0.760784 0.462745 0.003922
0.807843 0.450980 0.003922
0.847059 0.443137 0.000000
0.886275 0.439216 0.000000
0.909804 0.439216 0.003922
0.933333 0.439216 0.003922
0.952941 0.443137 0.003922
0.976471 0.443137 0.003922
0.984314 0.443137 0.003922
0.000000 0.462745 0.172549
0.003922 0.466667 0.176471
0.019608 0.470588 0.180392
0.015686 0.470588 0.168627
0.078431 0.470588 0.172549
0.149020 0.470588 0.180392
0.207843 0.470588 0.180392
0.270588 0.482353 0.160784
0.325490 0.494118 0.113725
0.372549 0.501961 0.070588
0.423529 0.509804 0.043137
0.490196 0.521569 0.027451
0.549020 0.525490 0.019608
0.603922 0.525490 0.007843
0.654902 0.521569 0.007843
0.698039 0.517647 0.007843
0.745098 0.509804 0.007843
0.792157 0.501961 0.003922
0.835294 0.494118 0.003922
0.878431 0.490196 0.003922
0.905882 0.486275 0.003922
0.929412 0.486275 0.003922
0.952941 0.486275 0.003922
0.976471 0.486275 0.003922
0.988235 0.482353 0.003922
0.003922 0.509804 0.184314
0.007843 0.513725 0.196078
0.011765 0.517647 0.200000
0.062745 0.513725 0.207843
0.105882 0.513725 0.207843
0.172549 0.513725 0.211765
0.227451 0.513725 0.215686
0.282353 0.517647 0.196078
0.337255 0.529412 0.160784
0.384314 0.537255 0.125490
0.427451 0.545098 0.101961
0.482353 0.556863 0.082353
0.533333 0.564706 0.058824
0.584314 0.568627 0.019608
0.635294 0.564706 0.019608
0.682353 0.560784 0.015686
0.733333 0.556863 0.007843
0.780392 0.549020 0.003922
0.823529 0.541176 0.003922
0.866667 0.541176 0.003922
0.901961 0.533333 0.003922
0.925490 0.529412 0.003922
0.949020 0.529412 0.003922
0.972549 0.521569 0.003922
0.992157 0.517647 0.003922
0.035294 0.556863 0.231373
0.043137 0.556863 0.231373
0.066667 0.560784 0.235294
0.105882 0.560784 0.243137
0.160784 0.556863 0.250980
0.203922 0.556863 0.250980
0.250980 0.552941 0.247059
0.298039 0.556863 0.235294
0.349020 0.568627 0.207843
0.388235 0.572549 0.184314
0.427451 0.580392 0.168627
0.478431 0.592157 0.145098
0.521569 0.596078 0.121569
0.568627 0.600000 0.082353
0.619608 0.607843 0.043137
0.666667 0.607843 0.023529
0.713725 0.603922 0.007843
0.764706 0.596078 0.003922
0.803922 0.596078 0.003922
0.850980 0.592157 0.007843
0.890196 0.588235 0.007843
0.917647 0.584314 0.007843
0.945098 0.576471 0.007843
0.972549 0.572549 0.007843
0.992157 0.568627 0.003922
0.101961 0.596078 0.262745
0.125490 0.596078 0.266667
0.152941 0.600000 0.282353
0.176471 0.600000 0.290196
0.211765 0.600000 0.290196
0.243137 0.596078 0.286275
0.274510 0.596078 0.278431
0.313725 0.592157 0.270588
0.356863 0.603922 0.250980
0.396078 0.607843 0.239216
0.431373 0.615686 0.227451
0.474510 0.623529 0.207843
0.513725 0.623529 0.180392
0.560784 0.631373 0.141176
0.607843 0.639216 0.094118
0.650980 0.647059 0.043137
0.701961 0.647059 0.007843
0.749020 0.643137 0.003922
0.788235 0.643137 0.007843
0.835294 0.643137 0.011765
0.878431 0.639216 0.011765
0.909804 0.631373 0.007843
0.937255 0.627451 0.011765
0.968627 0.623529 0.007843
0.988235 0.615686 0.003922
0.180392 0.631373 0.294118
0.200000 0.631373 0.305882
0.223529 0.635294 0.321569
0.247059 0.639216 0.329412
0.270588 0.635294 0.329412
0.294118 0.631373 0.321569
0.313725 0.631373 0.313725
0.329412 0.627451 0.301961
0.364706 0.631373 0.298039
0.396078 0.639216 0.290196
0.427451 0.643137 0.282353
0.470588 0.650980 0.254902
0.513725 0.654902 0.231373
0.556863 0.658824 0.200000
0.600000 0.666667 0.145098
0.643137 0.674510 0.094118
0.686275 0.678431 0.035294
0.733333 0.682353 0.011765
0.776471 0.686275 0.019608
0.827451 0.686275 0.019608
0.870588 0.678431 0.011765
0.901961 0.674510 0.007843
0.933333 0.670588 0.011765
0.964706 0.662745 0.007843
0.980392 0.662745 0.007843
0.258824 0.666667 0.345098
0.262745 0.670588 0.349020
0.282353 0.670588 0.356863
0.298039 0.674510 0.364706
0.317647 0.670588 0.364706
0.337255 0.670588 0.364706
0.356863 0.666667 0.360784
0.376471 0.662745 0.349020
0.396078 0.662745 0.341176
0.419608 0.674510 0.341176
0.443137 0.678431 0.333333
0.474510 0.682353 0.313725
0.509804 0.686275 0.290196
0.552941 0.690196 0.254902
0.596078 0.698039 0.215686
0.635294 0.705882 0.176471
0.678431 0.709804 0.137255
0.717647 0.713725 0.113725
0.764706 0.721569 0.078431
0.815686 0.725490 0.035294
0.862745 0.725490 0.011765
0.894118 0.717647 0.007843
0.925490 0.713725 0.015686
0.960784 0.705882 0.011765
0.984314 0.701961 0.011765
0.329412 0.705882 0.400000
0.333333 0.705882 0.400000
0.341176 0.705882 0.396078
0.345098 0.705882 0.396078
0.360784 0.705882 0.396078
0.380392 0.701961 0.400000
0.400000 0.701961 0.400000
0.415686 0.698039 0.396078
0.435294 0.701961 0.388235
0.454902 0.705882 0.384314
0.474510 0.709804 0.372549
0.494118 0.713725 0.360784
0.513725 0.717647 0.345098
0.549020 0.721569 0.321569
0.592157 0.725490 0.301961
0.631373 0.729412 0.274510
0.670588 0.737255 0.243137
0.709804 0.737255 0.231373
0.745098 0.741176 0.196078
0.796078 0.752941 0.129412
0.847059 0.764706 0.050980
0.882353 0.760784 0.035294
0.913725 0.749020 0.054902
0.952941 0.745098 0.062745
0.972549 0.741176 0.066667
0.388235 0.737255 0.443137
0.388235 0.737255 0.443137
0.396078 0.737255 0.439216
0.400000 0.733333 0.431373
0.400000 0.733333 0.427451
0.415686 0.733333 0.427451
0.435294 0.733333 0.431373
0.450980 0.729412 0.435294
0.470588 0.729412 0.431373
0.486275 0.733333 0.423529
0.505882 0.737255 0.411765
0.525490 0.737255 0.400000
0.541176 0.741176 0.396078
0.556863 0.745098 0.384314
0.592157 0.749020 0.368627
0.627451 0.752941 0.345098
0.666667 0.756863 0.321569
0.701961 0.760784 0.298039
0.737255 0.764706 0.274510
0.772549 0.772549 0.243137
0.823529 0.776471 0.188235
0.866667 0.784314 0.145098
0.901961 0.776471 0.141176
0.937255 0.772549 0.152941
0.960784 0.772549 0.149020
0.443137 0.764706 0.482353
0.443137 0.764706 0.482353
0.450980 0.764706 0.482353
0.450980 0.764706 0.478431
0.454902 0.760784 0.474510
0.462745 0.760784 0.474510
0.474510 0.760784 0.474510
0.486275 0.760784 0.478431
0.505882 0.760784 0.474510
0.521569 0.764706 0.466667
0.537255 0.764706 0.466667
0.552941 0.764706 0.458824
0.568627 0.768627 0.450980
0.584314 0.772549 0.443137
0.603922 0.776471 0.431373
0.627451 0.780392 0.411765
0.666667 0.784314 0.388235
0.701961 0.784314 0.364706
0.733333 0.788235 0.345098
0.768627 0.796078 0.325490
0.803922 0.800000 0.305882
0.843137 0.803922 0.278431
0.886275 0.807843 0.254902
0.921569 0.807843 0.247059
0.945098 0.807843 0.243137
0.494118 0.796078 0.525490
0.494118 0.796078 0.525490
0.498039 0.792157 0.525490
0.501961 0.792157 0.525490
0.505882 0.792157 0.525490
0.513725 0.792157 0.521569
0.521569 0.792157 0.521569
0.529412 0.792157 0.517647
0.537255 0.792157 0.517647
0.552941 0.792157 0.513725
0.564706 0.792157 0.517647
0.580392 0.792157 0.513725
0.596078 0.796078 0.509804
0.611765 0.800000 0.498039
0.627451 0.803922 0.482353
0.643137 0.807843 0.470588
0.666667 0.807843 0.454902
0.701961 0.811765 0.439216
0.733333 0.815686 0.423529
0.772549 0.823529 0.407843
0.803922 0.827451 0.392157
0.839216 0.831373 0.372549
0.874510 0.835294 0.356863
0.909804 0.843137 0.345098
0.937255 0.843137 0.337255
0.541176 0.823529 0.564706
0.541176 0.823529 0.564706
0.545098 0.819608 0.564706
0.545098 0.819608 0.564706
0.552941 0.819608 0.568627
0.560784 0.819608 0.568627
0.564706 0.819608 0.564706
0.572549 0.819608 0.560784
0.580392 0.819608 0.564706
0.588235 0.819608 0.564706
0.603922 0.819608 0.564706
0.607843 0.819608 0.560784
0.623529 0.819608 0.556863
0.643137 0.823529 0.549020
0.658824 0.827451 0.537255
0.674510 0.831373 0.525490
0.686275 0.835294 0.517647
0.709804 0.839216 0.509804
0.741176 0.843137 0.501961
0.772549 0.847059 0.486275
0.803922 0.850980 0.470588
0.839216 0.854902 0.450980
0.874510 0.858824 0.435294
0.909804 0.866667 0.423529
0.929412 0.870588 0.411765
0.596078 0.850980 0.615686
0.596078 0.850980 0.615686
0.596078 0.847059 0.615686
0.600000 0.847059 0.615686
0.603922 0.847059 0.615686
0.611765 0.847059 0.619608
0.615686 0.847059 0.619608
0.623529 0.850980 0.619608
0.631373 0.850980 0.623529
0.639216 0.850980 0.619608
0.647059 0.847059 0.619608
0.650980 0.847059 0.611765
0.662745 0.847059 0.615686
0.678431 0.854902 0.611765
0.694118 0.858824 0.600000
0.709804 0.858824 0.588235
0.721569 0.862745 0.584314
0.741176 0.866667 0.580392
0.760784 0.870588 0.576471
0.784314 0.870588 0.560784
0.807843 0.874510 0.549020
0.839216 0.882353 0.537255
0.874510 0.890196 0.521569
0.905882 0.894118 0.501961
0.913725 0.894118 0.498039
0.647059 0.878431 0.666667
0.650980 0.878431 0.666667
0.650980 0.878431 0.666667
0.650980 0.878431 0.666667
0.654902 0.874510 0.666667
0.658824 0.878431 0.666667
0.666667 0.878431 0.670588
0.674510 0.878431 0.670588
0.678431 0.878431 0.670588
0.686275 0.878431 0.670588
0.686275 0.874510 0.666667
0.690196 0.874510 0.658824
0.701961 0.878431 0.666667
0.717647 0.882353 0.666667
0.733333 0.886275 0.662745
0.745098 0.890196 0.654902
0.756863 0.890196 0.650980
0.772549 0.894118 0.647059
0.792157 0.898039 0.639216
0.807843 0.898039 0.623529
0.823529 0.901961 0.615686
0.843137 0.909804 0.611765
0.874510 0.917647 0.600000
0.898039 0.921569 0.588235
0.905882 0.921569 0.580392
0.694118 0.905882 0.709804
0.698039 0.905882 0.713725
0.690196 0.901961 0.705882
0.690196 0.898039 0.701961
0.690196 0.898039 0.701961
0.694118 0.894118 0.701961
0.698039 0.898039 0.701961
0.709804 0.901961 0.709804
0.717647 0.905882 0.717647
0.717647 0.901961 0.709804
0.721569 0.898039 0.701961
0.725490 0.898039 0.701961
0.737255 0.898039 0.701961
0.745098 0.901961 0.705882
0.764706 0.909804 0.713725
0.772549 0.913725 0.705882
0.780392 0.913725 0.698039
0.792157 0.917647 0.694118
0.807843 0.917647 0.686275
0.823529 0.921569 0.670588
0.843137 0.925490 0.662745
0.858824 0.929412 0.658824
0.878431 0.937255 0.658824
0.894118 0.941176 0.650980
0.894118 0.941176 0.647059
0.031373 0.050980 0.058824
0.039216 0.050980 0.062745
0.062745 0.054902 0.062745
0.090196 0.062745 0.062745
0.113725 0.070588 0.062745
0.137255 0.066667 0.058824
0.160784 0.058824 0.058824
0.192157 0.050980 0.054902
0.254902 0.050980 0.050980
0.317647 0.050980 0.050980
0.388235 0.047059 0.043137
0.454902 0.047059 0.035294
0.513725 0.039216 0.027451
0.572549 0.031373 0.015686
0.627451 0.019608 0.007843
0.674510 0.031373 0.019608
0.717647 0.039216 0.035294
0.756863 0.054902 0.031373
0.796078 0.070588 0.011765
0.831373 0.082353 0.000000
0.862745 0.109804 0.011765
0.894118 0.129412 0.015686
0.925490 0.149020 0.019608
0.956863 0.168627 0.023529
0.972549 0.176471 0.023529
0.031373 0.058824 0.058824
0.039216 0.058824 0.058824
0.062745 0.066667 0.062745
0.086275 0.066667 0.066667
0.113725 0.074510 0.062745
0.141176 0.074510 0.058824
0.164706 0.066667 0.054902
0.207843 0.070588 0.050980
0.266667 0.070588 0.050980
0.329412 0.070588 0.047059
0.396078 0.066667 0.039216
0.458824 0.062745 0.035294
0.517647 0.058824 0.027451
0.576471 0.050980 0.015686
0.635294 0.047059 0.007843
0.678431 0.054902 0.015686
0.721569 0.066667 0.027451
0.760784 0.078431 0.023529
0.796078 0.090196 0.007843
0.831373 0.101961 0.003922
0.862745 0.121569 0.011765
0.894118 0.141176 0.015686
0.925490 0.160784 0.019608
0.956863 0.176471 0.019608
0.968627 0.184314 0.019608
0.027451 0.074510 0.062745
0.039216 0.078431 0.062745
0.058824 0.082353 0.062745
0.086275 0.082353 0.062745
0.109804 0.082353 0.058824
0.137255 0.078431 0.058824
0.176471 0.082353 0.054902
0.227451 0.090196 0.050980
0.278431 0.094118 0.043137
0.333333 0.090196 0.039216
0.403922 0.090196 0.035294
0.470588 0.094118 0.031373
0.525490 0.090196 0.023529
0.584314 0.086275 0.015686
0.647059 0.086275 0.003922
0.686275 0.090196 0.007843
0.725490 0.098039 0.011765
0.764706 0.109804 0.015686
0.796078 0.117647 0.011765
0.835294 0.129412 0.007843
0.866667 0.145098 0.007843
0.894118 0.160784 0.011765
0.925490 0.176471 0.011765
0.956863 0.192157 0.011765
0.964706 0.196078 0.015686
0.023529 0.094118 0.062745
0.035294 0.098039 0.062745
0.054902 0.101961 0.066667
0.078431 0.101961 0.062745
0.105882 0.101961 0.058824
0.137255 0.101961 0.058824
0.184314 0.105882 0.054902
0.235294 0.109804 0.047059
0.286275 0.109804 0.039216
0.341176 0.113725 0.039216
0.407843 0.117647 0.031373
0.478431 0.121569 0.031373
0.537255 0.121569 0.023529
0.600000 0.117647 0.015686
0.654902 0.117647 0.003922
0.694118 0.125490 0.003922
0.729412 0.133333 0.007843
0.768627 0.141176 0.011765
0.803922 0.145098 0.007843
0.839216 0.152941 0.003922
0.870588 0.168627 0.003922
0.898039 0.180392 0.007843
0.929412 0.192157 0.003922
0.960784 0.203922 0.000000
0.960784 0.207843 0.003922
0.015686 0.113725 0.066667
0.031373 0.117647 0.066667
0.050980 0.121569 0.066667
0.070588 0.125490 0.066667
0.098039 0.125490 0.062745
0.137255 0.133333 0.058824
0.184314 0.145098 0.050980
0.239216 0.145098 0.043137
0.294118 0.149020 0.035294
0.356863 0.152941 0.035294
0.423529 0.156863 0.035294
0.494118 0.156863 0.031373
0.556863 0.156863 0.027451
0.619608 0.156863 0.019608
0.666667 0.160784 0.011765
0.705882 0.164706 0.007843
0.741176 0.172549 0.011765
0.780392 0.180392 0.007843
0.807843 0.180392 0.007843
0.843137 0.184314 0.003922
0.874510 0.196078 0.011765
0.901961 0.211765 0.019608
0.933333 0.223529 0.015686
0.960784 0.235294 0.007843
0.968627 0.239216 0.007843
0.011765 0.141176 0.070588
0.027451 0.145098 0.074510
0.043137 0.149020 0.074510
0.062745 0.149020 0.070588
0.086275 0.152941 0.070588
0.137255 0.168627 0.054902
0.188235 0.180392 0.047059
0.243137 0.188235 0.039216
0.301961 0.196078 0.027451
0.372549 0.207843 0.023529
0.447059 0.211765 0.027451
0.513725 0.207843 0.027451
0.576471 0.203922 0.023529
0.635294 0.200000 0.023529
0.678431 0.207843 0.011765
0.721569 0.207843 0.003922
0.756863 0.215686 0.003922
0.788235 0.219608 0.007843
0.819608 0.223529 0.011765
0.850980 0.227451 0.011765
0.882353 0.235294 0.015686
0.909804 0.247059 0.023529
0.937255 0.258824 0.019608
0.964706 0.266667 0.015686
0.984314 0.274510 0.007843
0.007843 0.184314 0.090196
0.019608 0.184314 0.090196
0.035294 0.192157 0.090196
0.054902 0.196078 0.086275
0.086275 0.200000 0.078431
0.137255 0.211765 0.062745
0.188235 0.219608 0.047059
0.239216 0.231373 0.035294
0.309804 0.243137 0.023529
0.388235 0.254902 0.015686
0.466667 0.270588 0.015686
0.537255 0.262745 0.015686
0.592157 0.254902 0.019608
0.647059 0.250980 0.019608
0.690196 0.250980 0.011765
0.729412 0.254902 0.003922
0.764706 0.254902 0.003922
0.796078 0.254902 0.007843
0.827451 0.258824 0.011765
0.858824 0.262745 0.007843
0.890196 0.270588 0.015686
0.917647 0.278431 0.019608
0.941176 0.286275 0.019608
0.972549 0.298039 0.011765
0.992157 0.305882 0.007843
0.007843 0.247059 0.109804
0.011765 0.243137 0.109804
0.023529 0.247059 0.105882
0.039216 0.247059 0.105882
0.082353 0.254902 0.098039
0.133333 0.266667 0.086275
0.184314 0.270588 0.062745
0.239216 0.278431 0.039216
0.321569 0.294118 0.015686
0.400000 0.309804 0.007843
0.486275 0.325490 0.007843
0.552941 0.321569 0.007843
0.607843 0.313725 0.011765
0.662745 0.305882 0.011765
0.705882 0.305882 0.007843
0.729412 0.305882 0.003922
0.764706 0.301961 0.003922
0.800000 0.301961 0.003922
0.831373 0.301961 0.003922
0.866667 0.301961 0.003922
0.898039 0.305882 0.003922
0.921569 0.317647 0.007843
0.949020 0.325490 0.011765
0.976471 0.333333 0.007843
0.992157 0.341176 0.003922
0.007843 0.301961 0.129412
0.007843 0.301961 0.129412
0.007843 0.298039 0.125490
0.027451 0.301961 0.121569
0.078431 0.309804 0.117647
0.137255 0.321569 0.105882
0.188235 0.325490 0.090196
0.247059 0.329412 0.066667
0.317647 0.345098 0.039216
0.396078 0.360784 0.019608
0.478431 0.380392 0.007843
0.549020 0.376471 0.007843
0.603922 0.372549 0.007843
0.662745 0.368627 0.007843
0.705882 0.364706 0.007843
0.737255 0.360784 0.003922
0.772549 0.356863 0.003922
0.807843 0.349020 0.003922
0.839216 0.349020 0.003922
0.874510 0.349020 0.000000
0.901961 0.352941 0.003922
0.925490 0.356863 0.007843
0.952941 0.364706 0.007843
0.976471 0.372549 0.003922
0.988235 0.376471 0.003922
0.003922 0.360784 0.149020
0.003922 0.356863 0.145098
0.003922 0.356863 0.141176
0.023529 0.356863 0.141176
0.082353 0.360784 0.137255
0.141176 0.368627 0.129412
0.192157 0.372549 0.117647
0.254902 0.376471 0.094118
0.317647 0.392157 0.062745
0.384314 0.407843 0.031373
0.458824 0.423529 0.011765
0.533333 0.423529 0.007843
0.596078 0.427451 0.007843
0.650980 0.423529 0.007843
0.694118 0.415686 0.003922
0.737255 0.411765 0.003922
0.776471 0.403922 0.003922
0.815686 0.400000 0.003922
0.847059 0.392157 0.003922
0.878431 0.392157 0.000000
0.905882 0.396078 0.003922
0.929412 0.396078 0.003922
0.952941 0.400000 0.007843
0.980392 0.403922 0.003922
0.984314 0.403922 0.003922
0.003922 0.419608 0.168627
0.003922 0.419608 0.168627
0.011765 0.419608 0.168627
0.031373 0.419608 0.164706
0.082353 0.423529 0.164706
0.145098 0.419608 0.156863
0.200000 0.423529 0.149020
