assets/luts/Crizo_Mzeyah.cube
# Created by: The Preset Factory Ltd
LUT_3D_SIZE 32
0.000000 0.000000 0.000000
0.000000 0.000000 0.000000
0.000000 0.000000 0.000000
0.026154 0.005798 0.002869
0.078981 0.017273 0.009644
0.107088 0.028779 0.017487
0.131685 0.040894 0.025360
0.157870 0.056031 0.035218
0.185672 0.071595 0.044160
0.215488 0.086244 0.055146
0.247074 0.096010 0.068116
0.279637 0.104738 0.079438
0.312261 0.113436 0.087739
0.344915 0.122316 0.092744
0.377447 0.132509 0.097292
0.408942 0.142733 0.101869
0.439765 0.154055 0.106691
0.469734 0.166232 0.111727
0.498634 0.178622 0.116915
0.527794 0.191928 0.122438
0.557488 0.206210 0.128481
0.587976 0.221439 0.135134
0.618402 0.237003 0.142855
0.649165 0.252720 0.151308
0.680629 0.269017 0.161410
0.712947 0.285435 0.172824
0.746426 0.302434 0.185855
0.781003 0.319921 0.201511
0.816251 0.338598 0.219516
0.851865 0.358923 0.241398
0.887755 0.381903 0.268254
0.924071 0.409522 0.302739
0.000000 0.000000 0.000000
0.000000 0.000000 0.000000
0.000000 0.000000 0.000000
0.026001 0.005768 0.003876
0.078981 0.017273 0.009644
0.107088 0.028779 0.017487
0.131930 0.040833 0.025360
0.158114 0.054902 0.034241
0.186007 0.071473 0.044190
0.215854 0.087465 0.056092
0.247593 0.096620 0.069093
0.280064 0.104952 0.080049
0.312871 0.114137 0.088197
0.345647 0.123171 0.092714
0.378027 0.132815 0.097292
0.409674 0.143374 0.101839
0.440558 0.154971 0.106966
0.470619 0.167025 0.111696
0.499489 0.179171 0.117159
0.528649 0.192691 0.122652
0.558373 0.206882 0.128695
0.588800 0.222019 0.135531
0.619257 0.237430 0.143252
0.650050 0.253544 0.151614
0.681483 0.269596 0.161563
0.713802 0.286107 0.172946
0.747250 0.303075 0.186374
0.781765 0.320500 0.201877
0.816953 0.339269 0.220035
0.852506 0.359472 0.241947
0.888334 0.382422 0.268803
0.924559 0.410071 0.303502
0.000000 0.000000 0.000000
0.000000 0.000000 0.000000
0.000000 0.000000 0.000000
0.027192 0.005707 0.003906
0.080385 0.017121 0.010681
0.107424 0.028717 0.017487
0.132418 0.042817 0.026307
0.159213 0.059754 0.036103
0.187320 0.078828 0.046937
0.217350 0.090517 0.057862
0.249058 0.099519 0.069795
0.281621 0.107729 0.081147
0.314244 0.116335 0.088106
0.346838 0.124910 0.093019
0.379248 0.134798 0.097536
0.410834 0.145357 0.102388
0.441688 0.156558 0.107179
0.471595 0.168612 0.112154
0.500511 0.181186 0.117311
0.529717 0.194339 0.122805
0.559442 0.208377 0.128847
0.589807 0.223697 0.135653
0.620081 0.238956 0.143343
0.650782 0.254887 0.152071
0.682216 0.270817 0.161990
0.714473 0.287297 0.173465
0.747829 0.304173 0.186709
0.782315 0.321599 0.202152
0.817502 0.340063 0.220432
0.852964 0.360418 0.242557
0.888762 0.383337 0.269352
0.924926 0.411017 0.304082
0.002502 0.024994 0.005127
0.002502 0.024994 0.005127
0.003632 0.025971 0.005097
0.033600 0.023102 0.009308
0.084474 0.036652 0.015015
0.110231 0.048005 0.023865
0.135103 0.060914 0.030701
0.161532 0.076753 0.040558
0.189822 0.088838 0.050416
0.219608 0.096498 0.061341
0.251255 0.104402 0.072328
0.283757 0.112367 0.082094
0.316289 0.120729 0.089387
0.348882 0.129335 0.093904
0.381048 0.138552 0.098360
0.412696 0.148898 0.102510
0.443458 0.160098 0.107271
0.473182 0.171817 0.112551
0.501976 0.184207 0.117647
0.531121 0.197360 0.123354
0.560906 0.211551 0.129335
0.591211 0.226261 0.136110
0.621393 0.241611 0.143954
0.652033 0.257176 0.152651
0.683253 0.273228 0.162478
0.715389 0.289372 0.173953
0.748653 0.306096 0.187259
0.783047 0.323461 0.202762
0.818082 0.341863 0.221195
0.853513 0.362005 0.243229
0.889250 0.385016 0.270390
0.925383 0.412573 0.305028
0.008728 0.086061 0.016815
0.010040 0.086000 0.015839
0.010895 0.086610 0.017823
0.043366 0.086641 0.027985
0.089754 0.070497 0.027924
0.114839 0.080293 0.033753
0.139559 0.087617 0.040650
0.166049 0.093172 0.047547
0.194064 0.099031 0.057496
0.223850 0.105867 0.067414
0.255131 0.112520 0.076448
0.287144 0.119753 0.084047
0.319646 0.127138 0.090211
0.351904 0.135378 0.094270
0.383825 0.144656 0.099397
0.415137 0.154635 0.103792
0.445624 0.165469 0.108461
0.475074 0.176883 0.113375
0.503807 0.188663 0.118654
0.532708 0.201572 0.124300
0.562341 0.215518 0.130190
0.592584 0.230259 0.136904
0.622705 0.245365 0.144472
0.653162 0.260746 0.153506
0.684321 0.276402 0.163088
0.716396 0.292485 0.174777
0.749569 0.308904 0.187900
0.783841 0.326116 0.203830
0.818784 0.344427 0.222232
0.854154 0.364477 0.244205
0.889799 0.387243 0.271244
0.925841 0.414832 0.306279
0.017060 0.107881 0.031678
0.017060 0.107881 0.031678
0.021546 0.108125 0.032685
0.046876 0.106661 0.046082
0.093233 0.109346 0.049928
0.118257 0.098756 0.049378
0.145937 0.103487 0.051179
0.171878 0.107149 0.057130
0.199283 0.111971 0.064088
0.228763 0.117189 0.074098
0.259648 0.123201 0.080629
0.291569 0.129519 0.087648
0.323461 0.136599 0.091920
0.355505 0.144259 0.095857
0.386969 0.152438 0.100252
0.418097 0.162081 0.104280
0.448127 0.172488 0.109499
0.477546 0.183413 0.114290
0.505974 0.195224 0.119265
0.534722 0.207797 0.124849
0.564202 0.221317 0.130922
0.594202 0.235691 0.137575
0.620569 0.248417 0.144411
0.651026 0.263706 0.153231
0.682246 0.279149 0.163149
0.714382 0.295018 0.174685
0.747768 0.311376 0.187961
0.782162 0.328496 0.203616
0.817288 0.346654 0.222141
0.852811 0.366583 0.244236
0.888609 0.389197 0.271183
0.924834 0.416602 0.306310
0.025177 0.125948 0.045319
0.025177 0.125948 0.045319
0.032959 0.125826 0.048371
0.058381 0.124910 0.060700
0.090791 0.124514 0.072999
0.116030 0.123110 0.073426
0.147127 0.117067 0.070619
0.177981 0.122621 0.067231
0.205295 0.126009 0.072236
0.233799 0.130220 0.078859
0.264347 0.135409 0.084565
0.295445 0.140993 0.089357
0.326909 0.147341 0.093111
0.358526 0.154452 0.096590
0.389776 0.162600 0.100862
0.420386 0.171664 0.105776
0.450324 0.181430 0.110292
0.479377 0.191836 0.115053
0.507500 0.202762 0.120241
0.535790 0.214572 0.125551
0.564904 0.227817 0.131533
0.594415 0.241459 0.138369
0.623987 0.255741 0.146029
0.653986 0.270390 0.154726
0.684749 0.285466 0.164523
0.716548 0.300847 0.176089
0.749630 0.316808 0.189334
0.783810 0.333623 0.205325
0.818784 0.351415 0.223667
0.854093 0.371069 0.246036
0.889738 0.393652 0.273625
0.925750 0.420844 0.308965
0.034150 0.144869 0.061219
0.034150 0.144869 0.061219
0.046509 0.144717 0.065309
0.073548 0.143771 0.074647
0.095064 0.142214 0.085145
0.120089 0.145785 0.088014
0.141726 0.138552 0.088991
0.179416 0.135378 0.085908
0.213046 0.141573 0.082399
0.242710 0.145754 0.082979
0.272404 0.149722 0.087495
0.303014 0.154910 0.091066
0.334051 0.160922 0.094697
0.364935 0.167575 0.098451
0.395880 0.175448 0.102571
0.426123 0.184176 0.106722
0.455604 0.193484 0.111727
0.484169 0.203433 0.116640
0.511955 0.213993 0.121736
0.540002 0.225345 0.127138
0.568872 0.237644 0.133028
0.597925 0.250584 0.139956
0.627222 0.264103 0.147524
0.657069 0.278386 0.156435
0.687587 0.292973 0.166567
0.719203 0.307988 0.178073
0.752163 0.323583 0.191379
0.786099 0.340002 0.207645
0.820829 0.357488 0.226230
0.855924 0.376989 0.248814
0.891295 0.399237 0.276493
0.927031 0.426276 0.312261
0.048951 0.164645 0.076265
0.052308 0.164614 0.077302
0.066041 0.164279 0.079591
0.087648 0.163668 0.084840
0.102449 0.162539 0.090791
0.120058 0.162234 0.095644
0.151705 0.168643 0.095247
0.169772 0.154055 0.096803
0.213779 0.154910 0.094240
0.250034 0.161624 0.091035
0.282017 0.166232 0.089113
0.311986 0.170657 0.092103
0.342260 0.176211 0.095644
0.372686 0.182620 0.099367
0.402808 0.189914 0.104036
0.432532 0.198276 0.108644
0.461463 0.207218 0.113497
0.489570 0.216648 0.118257
0.516838 0.226505 0.123232
0.544549 0.237522 0.129000
0.573114 0.249363 0.134951
0.601953 0.261936 0.141909
0.630854 0.274723 0.149508
0.660395 0.288304 0.158419
0.690669 0.301884 0.168765
0.722011 0.316228 0.180240
0.754757 0.331456 0.194125
0.788632 0.347387 0.209964
0.823056 0.364630 0.229007
0.857877 0.383673 0.251591
0.892973 0.405615 0.279759
0.928405 0.432532 0.316014
0.071504 0.185275 0.086488
0.073518 0.185428 0.087739
0.084718 0.185153 0.088655
0.096529 0.184451 0.091005
0.111055 0.183474 0.095186
0.126284 0.182040 0.100465
0.151369 0.185885 0.102510
0.185672 0.192508 0.102724
0.201236 0.171084 0.105501
0.250065 0.174838 0.101137
0.288273 0.182498 0.097169
0.322362 0.188266 0.092439
0.351751 0.193088 0.096315
0.381476 0.199069 0.100587
0.410986 0.206180 0.104829
0.439918 0.214023 0.109651
0.468208 0.222416 0.114961
0.495705 0.231449 0.119875
0.522484 0.240879 0.124941
0.549798 0.251133 0.130800
0.578210 0.262730 0.137057
0.606683 0.274815 0.144045
0.635401 0.287144 0.151827
0.664637 0.299870 0.161105
0.694789 0.313237 0.171298
0.725917 0.326909 0.183261
0.758297 0.341344 0.196994
0.791653 0.356512 0.213138
0.825711 0.372869 0.232151
0.860075 0.391547 0.255314
0.894774 0.413275 0.283787
0.929870 0.439796 0.320531
0.091737 0.207095 0.093019
0.092561 0.207065 0.093416
0.097780 0.206729 0.094545
0.107942 0.206119 0.096376
0.120668 0.205264 0.099916
0.135653 0.204257 0.105165
0.153262 0.203861 0.110323
0.185580 0.210971 0.110414
0.216617 0.212406 0.111299
0.236667 0.189670 0.114473
0.287083 0.196170 0.109285
0.326452 0.204532 0.104433
0.361273 0.211337 0.097993
0.391394 0.217288 0.100496
0.419867 0.223941 0.105623
0.448066 0.231388 0.110933
0.475685 0.239353 0.116121
0.502403 0.247654 0.121462
0.528740 0.256626 0.126864
0.555779 0.266545 0.132815
0.583734 0.277409 0.139315
0.611749 0.288823 0.146334
0.640101 0.300542 0.154299
0.669001 0.312749 0.163668
0.698817 0.325383 0.173983
0.729702 0.338476 0.186252
0.761776 0.352300 0.200198
0.794766 0.366949 0.216770
0.828428 0.382910 0.236057
0.862394 0.400824 0.259464
0.896696 0.421851 0.288029
0.931334 0.448066 0.325566
0.105074 0.228977 0.098909
0.106081 0.228946 0.099245
0.110445 0.228641 0.100252
0.119722 0.228214 0.102266
0.131136 0.227573 0.105531
0.145876 0.226352 0.110170
0.161807 0.225101 0.115938
0.187015 0.229191 0.118563
0.222232 0.237064 0.118502
0.248692 0.232273 0.120424
0.273228 0.208835 0.124605
0.324285 0.218173 0.117433
0.361028 0.225986 0.111330
0.395697 0.233677 0.104463
0.426795 0.241459 0.104677
0.454047 0.248325 0.110872
0.480995 0.255680 0.116579
0.507439 0.263706 0.122103
0.533227 0.271977 0.127718
0.559991 0.281559 0.133974
0.587518 0.291844 0.140810
0.615167 0.302800 0.148074
0.643244 0.313939 0.156619
0.671931 0.325597 0.165805
0.701595 0.337804 0.176669
0.732357 0.350439 0.189090
0.764248 0.363622 0.203128
0.797086 0.377874 0.219944
0.830442 0.393256 0.239750
0.864134 0.410681 0.263371
0.898161 0.431312 0.292638
0.932494 0.457099 0.330541
0.119265 0.250278 0.104952
0.120424 0.250278 0.105257
0.124331 0.250187 0.106508
0.132021 0.249790 0.108400
0.142885 0.249241 0.110811
0.156680 0.248325 0.115419
0.171939 0.247318 0.121096
0.190433 0.247440 0.126528
0.222293 0.254643 0.126925
0.260044 0.263371 0.127687
0.280339 0.251560 0.130373
0.308721 0.227695 0.134890
0.359258 0.240177 0.125826
0.398596 0.250980 0.120027
0.432349 0.259342 0.113466
0.464698 0.268833 0.109957
0.490608 0.275486 0.116518
0.516228 0.282994 0.122744
0.541588 0.290806 0.129458
0.567895 0.299840 0.135592
0.594629 0.309392 0.142885
0.621759 0.319524 0.150576
0.649317 0.330114 0.159426
0.677760 0.341039 0.169039
0.706996 0.352453 0.180209
0.737331 0.364355 0.192721
0.768917 0.376959 0.207370
0.801236 0.390387 0.224491
0.834134 0.405310 0.244724
0.867338 0.422309 0.268894
0.900816 0.442451 0.298833
0.934600 0.467872 0.337621
0.134340 0.272770 0.111849
0.135103 0.272740 0.111849
0.138735 0.272648 0.112734
0.145846 0.272313 0.114443
0.155703 0.271946 0.117494
0.168673 0.271153 0.121248
0.183230 0.270237 0.126558
0.199313 0.269078 0.133150
0.225650 0.273594 0.135683
0.259892 0.281804 0.136721
0.297917 0.290257 0.137575
0.313481 0.272068 0.141390
0.345556 0.249668 0.145968
0.395392 0.264622 0.135714
0.434333 0.276493 0.130098
0.467750 0.285954 0.123537
0.500908 0.296757 0.116854
0.526329 0.303929 0.123262
0.551049 0.311131 0.130129
0.576745 0.319371 0.137270
0.602808 0.328374 0.144839
0.629297 0.337804 0.153109
0.656367 0.347448 0.162295
0.684260 0.357641 0.172610
0.713039 0.368383 0.184054
0.742977 0.379492 0.197116
0.774014 0.391302 0.212039
0.805875 0.404242 0.229404
0.838193 0.418463 0.250187
0.870817 0.434821 0.274968
0.903716 0.454597 0.305730
0.936950 0.479652 0.345495
0.149874 0.295048 0.118441
0.150271 0.295018 0.118685
0.153597 0.294957 0.119753
0.159640 0.294652 0.121096
0.168765 0.294316 0.123903
0.181277 0.293706 0.127626
0.195285 0.292943 0.132601
0.210666 0.291905 0.138796
0.229435 0.292210 0.144930
0.261540 0.299962 0.145480
0.297429 0.308995 0.146883
0.329534 0.312047 0.148531
0.345892 0.292393 0.153017
0.382055 0.273838 0.156374
0.430152 0.289647 0.146334
0.468696 0.302678 0.140658
0.501457 0.312932 0.134005
0.534051 0.324010 0.127413
0.561242 0.332433 0.130007
0.586084 0.340032 0.138186
0.611475 0.348058 0.146487
0.637263 0.356634 0.155734
0.663905 0.365698 0.165011
0.691218 0.375128 0.176028
0.719600 0.385016 0.187869
0.749050 0.395544 0.201480
0.779538 0.406592 0.217014
0.810758 0.418677 0.234867
0.842405 0.432319 0.256199
0.874388 0.448127 0.281407
0.906645 0.467323 0.312902
0.939178 0.491920 0.353613
0.164584 0.316991 0.125521
0.165316 0.317113 0.125734
0.168429 0.316899 0.126741
0.173709 0.316899 0.128176
0.182559 0.316472 0.130800
0.193851 0.315984 0.134249
0.207248 0.315282 0.139101
0.222019 0.314122 0.144747
0.237949 0.312902 0.151614
0.263890 0.317937 0.154696
0.297368 0.326543 0.156130
0.334417 0.336645 0.157198
0.360693 0.334142 0.160098
0.377661 0.312993 0.165011
0.417762 0.299199 0.167361
0.464118 0.315618 0.157748
0.502068 0.329656 0.152621
0.534295 0.340185 0.145632
0.566613 0.351446 0.138827
0.596124 0.361486 0.138338
0.620600 0.368688 0.147616
0.645777 0.376410 0.157321
0.671687 0.384588 0.167971
0.698634 0.393286 0.179171
0.726467 0.402319 0.191836
0.755367 0.412085 0.206180
0.785275 0.422431 0.222141
0.815854 0.433906 0.240635
0.846921 0.446845 0.262333
0.878202 0.462135 0.288518
0.909758 0.480934 0.321172
0.941680 0.505119 0.362646
0.179507 0.339025 0.132906
0.180362 0.338964 0.132937
0.182589 0.338964 0.133822
0.188357 0.338567 0.134981
0.196292 0.338262 0.137606
0.206394 0.337835 0.140841
0.219272 0.337163 0.145388
0.233555 0.336217 0.150729
0.248875 0.335180 0.157412
0.267247 0.335668 0.163912
0.298619 0.344121 0.165011
0.333165 0.353826 0.166629
0.370703 0.365057 0.168551
0.391089 0.356268 0.172457
0.408728 0.334173 0.178042
0.452033 0.324712 0.178805
0.496345 0.341680 0.169924
0.533898 0.356237 0.164492
0.565942 0.367193 0.157900
0.598413 0.378607 0.151705
0.630030 0.389776 0.147890
0.654566 0.396582 0.158633
0.679927 0.403906 0.170169
0.706264 0.411841 0.182498
0.733608 0.420142 0.195804
0.762020 0.429053 0.210483
0.791287 0.438758 0.227390
0.821225 0.449470 0.246403
0.851560 0.461921 0.268864
0.882200 0.476692 0.295964
0.913115 0.495033 0.329534
0.944244 0.518914 0.372381
0.194186 0.360449 0.140017
0.194949 0.360327 0.140017
0.196353 0.358862 0.140230
0.201175 0.358709 0.141909
0.208438 0.358526 0.144167
0.218296 0.358160 0.147372
0.230137 0.357610 0.151278
0.243748 0.356909 0.156680
0.258854 0.355993 0.162844
0.274388 0.355047 0.170321
0.299596 0.360235 0.173922
0.332067 0.369665 0.175509
0.367071 0.380468 0.177554
0.403449 0.391730 0.179660
0.419745 0.377569 0.184848
0.437690 0.354070 0.190921
0.483986 0.349950 0.190494
0.526696 0.367010 0.181949
0.564050 0.382238 0.177279
0.596429 0.393561 0.171237
0.628870 0.404822 0.165866
0.661524 0.415869 0.161563
0.687861 0.423194 0.171389
0.713649 0.430274 0.184756
0.740566 0.437934 0.199008
0.768551 0.446235 0.214786
0.797330 0.455299 0.232303
0.826688 0.465492 0.252232
0.856382 0.477424 0.275883
0.886381 0.491676 0.303868
0.916503 0.509667 0.338781
0.946929 0.533318 0.382849
0.208164 0.381689 0.147219
0.208743 0.381598 0.147219
0.211002 0.381384 0.147829
0.215396 0.381231 0.149386
0.222080 0.380713 0.151369
0.231357 0.380377 0.154360
0.242527 0.379919 0.158358
0.255863 0.379370 0.163424
0.270298 0.378668 0.169406
0.285588 0.377722 0.176364
0.303166 0.378271 0.183627
0.333715 0.387518 0.185489
0.366827 0.398047 0.187198
0.401984 0.409918 0.189670
0.433021 0.416236 0.192782
0.449775 0.401160 0.198764
0.470802 0.378546 0.205997
0.517510 0.377600 0.203677
0.558862 0.394568 0.195834
0.595300 0.409308 0.191684
0.627680 0.420569 0.186740
0.660365 0.431434 0.182376
0.693568 0.441840 0.179263
0.722438 0.449775 0.186893
0.748775 0.456550 0.202243
0.776059 0.464088 0.219150
0.804135 0.472450 0.237522
0.832761 0.482033 0.258579
0.861692 0.493446 0.283177
0.890867 0.507195 0.312352
0.920256 0.524804 0.348333
0.949828 0.548211 0.394049
0.223362 0.405097 0.155215
0.223728 0.404944 0.155245
0.225803 0.404761 0.155795
0.229862 0.404456 0.157107
0.236149 0.404211 0.159243
0.244907 0.403906 0.162051
0.255680 0.403418 0.165805
0.268376 0.402930 0.170565
0.282444 0.402441 0.176486
0.297215 0.401709 0.183352
0.312627 0.400855 0.191073
0.336675 0.406256 0.195743
0.368170 0.416632 0.198032
0.401678 0.428321 0.200473
0.437385 0.441474 0.203372
0.463294 0.442390 0.207919
0.480690 0.426551 0.214542
0.504387 0.404883 0.222599
0.551751 0.406683 0.218357
0.591394 0.422919 0.211521
0.626368 0.436286 0.207950
0.658930 0.447120 0.204044
0.692226 0.457588 0.201297
0.725978 0.467414 0.199710
0.757473 0.475654 0.205203
0.784085 0.482368 0.223362
0.811398 0.489998 0.242741
0.839200 0.498970 0.265019
0.867369 0.509758 0.290806
0.895689 0.523186 0.321477
0.924224 0.540520 0.358984
0.952941 0.563592 0.405859
0.238376 0.429389 0.163455
0.238743 0.429175 0.163516
0.240604 0.429114 0.164187
0.244511 0.428931 0.165530
0.250767 0.428565 0.167239
0.259037 0.428321 0.170016
0.269444 0.428046 0.173983
0.281651 0.427710 0.178561
0.295079 0.427283 0.184115
0.309545 0.426734 0.190860
0.324712 0.426184 0.198520
0.340978 0.426123 0.206485
0.371008 0.436286 0.208927
0.402869 0.447791 0.211856
0.436866 0.460670 0.214786
0.472908 0.475013 0.218387
0.494209 0.470222 0.224063
0.512139 0.453346 0.231632
0.538598 0.432502 0.240665
0.586175 0.436347 0.234409
0.623255 0.450660 0.228733
0.656855 0.462531 0.225895
0.689998 0.472938 0.223484
0.723842 0.482887 0.222385
0.758206 0.492103 0.222538
0.791745 0.500450 0.226444
0.818265 0.507408 0.247471
0.845274 0.515740 0.271031
0.872557 0.526024 0.298131
0.900114 0.538964 0.330083
0.927825 0.555871 0.368994
0.955657 0.578882 0.417639
0.253391 0.454719 0.172183
0.253819 0.454688 0.172335
0.255650 0.454505 0.172824
0.259342 0.454383 0.174075
0.265232 0.454353 0.176089
0.273167 0.454170 0.178805
0.283238 0.453895 0.182345
0.294774 0.453620 0.186923
0.307958 0.453285 0.192416
0.322301 0.452766 0.198886
0.336980 0.452338 0.206394
0.352209 0.451789 0.214817
0.374456 0.456764 0.220737
0.405310 0.468147 0.223697
0.437903 0.480812 0.227207
0.472450 0.495003 0.230869
0.508843 0.510277 0.234897
0.525902 0.499367 0.242344
0.544518 0.481453 0.250889
0.573724 0.461097 0.261387
0.620233 0.465949 0.252811
0.655329 0.478370 0.248417
0.687922 0.488624 0.246464
0.721675 0.498726 0.245792
0.756191 0.508110 0.246738
0.790829 0.516899 0.249210
0.825071 0.525231 0.253849
0.852049 0.533013 0.277012
0.878508 0.542809 0.305852
0.905180 0.555383 0.339574
0.931945 0.572015 0.380133
0.958862 0.594903 0.430549
0.268803 0.481880 0.181643
0.269169 0.481819 0.181643
0.270756 0.481758 0.182376
0.274449 0.481575 0.183413
0.280064 0.481514 0.185397
0.287877 0.481331 0.188083
0.297337 0.481147 0.191653
0.308690 0.480934 0.196048
0.321355 0.480812 0.201572
0.335271 0.480537 0.207858
0.349767 0.480201 0.215244
0.364935 0.479744 0.223514
0.380072 0.479377 0.232914
0.408789 0.489906 0.236576
0.440192 0.502464 0.240208
0.473396 0.516411 0.244297
0.508659 0.531792 0.248936
0.541161 0.542321 0.254643
0.559045 0.530449 0.263249
0.577874 0.510704 0.272831
0.608545 0.489937 0.284947
0.654353 0.495308 0.273869
0.687831 0.505913 0.271183
0.719478 0.514519 0.269871
0.754299 0.524468 0.271672
0.789151 0.533562 0.275120
0.823575 0.542168 0.280705
0.857176 0.550744 0.289281
0.885039 0.560143 0.314305
0.910765 0.572320 0.349706
0.936553 0.588708 0.392187
0.962432 0.611566 0.444526
0.284398 0.510277 0.191592
0.284642 0.510277 0.191714
0.286381 0.510185 0.192264
0.289830 0.510185 0.193454
0.295140 0.510155 0.195315
0.302617 0.510124 0.198062
0.311894 0.510094 0.201480
0.322942 0.509972 0.206058
0.335363 0.509850 0.211337
0.348821 0.509789 0.217777
0.363134 0.509575 0.224918
0.378149 0.509453 0.233188
0.393286 0.509239 0.242527
0.413397 0.513207 0.250614
0.443885 0.525780 0.254643
0.476143 0.539666 0.259190
0.510338 0.554894 0.264317
0.546624 0.571313 0.269963
0.575067 0.576074 0.277501
0.592889 0.562188 0.287419
0.611688 0.540459 0.298924
0.643854 0.519158 0.312688
0.689479 0.524895 0.298589
0.721431 0.533806 0.297887
0.752193 0.540795 0.297398
0.786435 0.549828 0.301396
0.821134 0.559075 0.308293
0.855009 0.568200 0.318212
0.887785 0.577630 0.331456
0.916075 0.589136 0.359594
0.940917 0.605249 0.403876
0.965759 0.628229 0.458778
0.300420 0.541680 0.202823
0.300755 0.541527 0.202853
0.302434 0.541558 0.203464
0.305882 0.541527 0.204715
0.311070 0.541405 0.206302
0.318059 0.541527 0.209171
0.327153 0.541497 0.212589
0.337713 0.541436 0.217075
0.349737 0.541405 0.222293
0.363104 0.541375 0.228519
0.377264 0.541344 0.235904
0.392096 0.541253 0.244236
0.407233 0.541253 0.253788
0.422553 0.541314 0.264317
0.448737 0.550774 0.270481
0.480110 0.564569 0.275486
0.513146 0.579431 0.281224
0.547906 0.595056 0.287480
0.585016 0.611353 0.294438
0.609033 0.609155 0.304082
0.626947 0.593378 0.315862
0.645869 0.569787 0.328618
0.679561 0.548180 0.344518
0.724514 0.554284 0.328405
0.755459 0.561517 0.328923
0.784756 0.567102 0.329351
0.818143 0.575708 0.335943
0.852262 0.585565 0.347295
0.885313 0.595697 0.362066
0.916838 0.607019 0.382208
0.945006 0.621576 0.415381
0.968841 0.644526 0.472389
0.316838 0.575525 0.215061
0.317205 0.575525 0.215274
0.318669 0.575494 0.215854
0.321965 0.575555 0.216983
0.327153 0.575586 0.218997
0.334051 0.575647 0.221653
0.342870 0.575677 0.225132
0.353307 0.575799 0.229557
0.365179 0.575799 0.234897
0.378424 0.575921 0.241398
0.392309 0.576104 0.248722
0.407080 0.576226 0.257237
0.422370 0.576379 0.266911
0.437812 0.576501 0.277684
0.455146 0.578454 0.288670
0.485542 0.591791 0.294347
0.517327 0.605951 0.300725
0.550835 0.620813 0.307958
0.586633 0.636316 0.315770
0.625116 0.652216 0.324254
0.644495 0.642786 0.336339
0.662654 0.625025 0.349493
0.681697 0.600031 0.364111
0.716854 0.578393 0.382391
0.760922 0.584466 0.364080
0.790341 0.590295 0.365759
0.817807 0.594659 0.367346
0.849882 0.603265 0.377295
0.883146 0.614313 0.393866
0.914885 0.626642 0.415747
0.944945 0.641382 0.444770
0.972229 0.661646 0.487617
0.333989 0.612024 0.229770
0.334142 0.612024 0.229892
0.335790 0.611994 0.230411
0.338964 0.612024 0.231662
0.343999 0.612024 0.233494
0.350683 0.612055 0.236332
0.359258 0.612146 0.239872
0.369421 0.612177 0.244419
0.381079 0.612238 0.249882
0.393866 0.612299 0.256413
0.407813 0.612451 0.263981
0.422370 0.612543 0.272679
0.437568 0.612757 0.282628
0.453071 0.613001 0.293553
0.468757 0.613306 0.305974
0.491463 0.620020 0.315618
0.522271 0.633448 0.322789
0.554711 0.647547 0.330663
0.589075 0.662165 0.339361
0.626093 0.677180 0.348852
0.663416 0.689204 0.359625
0.681025 0.675563 0.373449
0.699367 0.656306 0.388556
0.719417 0.630640 0.405127
0.755276 0.610407 0.423346
0.796872 0.614954 0.405158
0.824369 0.619623 0.407935
0.849607 0.623011 0.410498
0.879911 0.632074 0.424109
0.912078 0.645441 0.447517
0.942473 0.661433 0.478187
0.970428 0.682246 0.519554
0.351293 0.649866 0.247013
0.351568 0.649866 0.247013
0.353002 0.649836 0.247684
0.356207 0.649897 0.248905
0.361059 0.649989 0.251102
0.367712 0.650080 0.253910
0.376135 0.650263 0.257664
0.385962 0.650446 0.262455
0.397528 0.650568 0.268132
0.410346 0.650752 0.274784
0.424201 0.651057 0.282963
0.438880 0.651301 0.291997
0.454017 0.651667 0.302220
0.469703 0.652125 0.313878
0.485481 0.652583 0.326604
0.501457 0.653101 0.340642
0.529534 0.664271 0.349584
0.560967 0.677546 0.358190
0.594293 0.691249 0.367773
0.630182 0.705287 0.378302
0.669215 0.719509 0.389746
0.703120 0.724727 0.402869
