assets/luts/Crizo_Mzeyah.cube
# Created by: The Preset Factory Ltd
LUT_3D_SIZE 5
DOMAIN_MIN 0.000000 0.000000 0.000000
DOMAIN_MAX 0.903226 0.903226 0.903226
0.000000 0.000000 0.000000
0.157870 0.056031 0.035218
0.377447 0.132509 0.097292
0.587976 0.221439 0.135134
0.816251 0.338598 0.219516
0.034150 0.144869 0.061219
0.179416 0.135378 0.085908
0.395880 0.175448 0.102571
0.597925 0.250584 0.139956
0.820829 0.357488 0.226230
0.149874 0.295048 0.118441
0.210666 0.291905 0.138796
0.430152 0.289647 0.146334
0.637263 0.356634 0.155734
0.842405 0.432319 0.256199
0.253391 0.454719 0.172183
0.294774 0.453620 0.186923
0.437903 0.480812 0.227207
0.655329 0.478370 0.248417
0.878508 0.542809 0.305852
0.370428 0.691218 0.269230
0.404425 0.691859 0.285435
0.504906 0.696101 0.354528
0.717494 0.763149 0.440681
0.893492 0.688594 0.518822
0.000000 0.111025 0.184329
0.176181 0.116701 0.186618
0.394934 0.177310 0.135348
0.607904 0.272404 0.144076
0.826322 0.368505 0.231540
0.026123 0.191806 0.180270
0.195804 0.207340 0.180972
0.414893 0.221500 0.144381
0.617212 0.298650 0.148531
0.830838 0.385657 0.238071
0.164950 0.323644 0.151522
0.248417 0.324895 0.180728
0.440803 0.307164 0.160586
0.650904 0.382940 0.158999
0.849546 0.450141 0.264836
0.273350 0.464149 0.180179
0.319951 0.464485 0.198978
0.454322 0.496315 0.234348
0.658228 0.486732 0.258640
0.882719 0.550988 0.311284
0.378637 0.696864 0.275059
0.410407 0.697414 0.290623
0.507652 0.700069 0.358007
0.717403 0.765957 0.444617
0.893523 0.691981 0.524315
0.000000 0.215122 0.387427
0.000000 0.201541 0.403540
0.407874 0.246891 0.444617
0.605005 0.300237 0.378759
0.831876 0.436988 0.350866
0.000000 0.264683 0.387823
0.137972 0.264439 0.396368
0.414313 0.303410 0.441169
0.610254 0.346166 0.373358
0.837522 0.447395 0.346227
0.105043 0.384863 0.386267
0.207309 0.396460 0.394873
0.443122 0.455207 0.431922
0.642084 0.457954 0.373907
0.860899 0.479469 0.304906
0.226505 0.523674 0.347204
0.290105 0.537804 0.353216
0.455268 0.552087 0.392157
0.660945 0.546258 0.400153
0.894774 0.569879 0.327245
0.377813 0.728817 0.342351
0.414221 0.727291 0.348730
0.505882 0.718654 0.362890
0.707637 0.775143 0.458473
0.896178 0.705928 0.547021
0.000000 0.321202 0.612116
0.000000 0.314946 0.622034
0.307134 0.319097 0.662745
0.589532 0.421668 0.714717
0.821134 0.562585 0.713710
0.000000 0.352544 0.610773
0.000000 0.347692 0.616754
0.316381 0.354833 0.660090
0.594110 0.456855 0.713832
0.823026 0.584588 0.713497
0.000000 0.438483 0.610132
0.016907 0.440162 0.614801
0.337407 0.453132 0.638025
0.610468 0.563500 0.708553
0.830381 0.646540 0.702693
0.119692 0.569940 0.607965
0.204196 0.576776 0.613245
0.386694 0.609491 0.637049
0.644160 0.706813 0.703243
0.867247 0.698970 0.657557
0.237491 0.759609 0.615167
0.285466 0.763760 0.613001
0.430976 0.779873 0.604608
0.623346 0.783566 0.616510
0.892729 0.766293 0.668574
0.000000 0.460609 0.861112
0.000000 0.457374 0.862394
0.268559 0.465034 0.869657
0.548882 0.558495 0.886473
0.794980 0.687160 0.907439
0.000000 0.476173 0.857664
0.000000 0.472938 0.858732
0.270146 0.479835 0.866392
0.551110 0.572229 0.884062
0.797635 0.698848 0.906584
0.000000 0.539117 0.857786
0.000000 0.533837 0.857450
0.228580 0.524743 0.858030
0.551904 0.614984 0.877775
0.811826 0.742763 0.907073
0.000000 0.649348 0.856535
0.000000 0.647089 0.855833
0.244785 0.638514 0.855924
0.485328 0.645991 0.860685
0.835630 0.808286 0.908232
0.176699 0.795529 0.856962
0.223850 0.796414 0.856596
0.347997 0.801938 0.856199
0.533074 0.821500 0.857908
0.871580 0.905669 0.905150
