assets/luts/Crizo_Mzeyah.cube
# Created by: The Preset Factory Ltd
LUT_3D_SIZE 8
DOMAIN_MIN 0.000000 0.000000 0.000000
DOMAIN_MAX 0.903226 0.903226 0.903226
0.000000 0.000000 0.000000
0.078981 0.017273 0.009644
0.185672 0.071595 0.044160
0.312261 0.113436 0.087739
0.439765 0.154055 0.106691
0.557488 0.206210 0.128481
0.680629 0.269017 0.161410
0.816251 0.338598 0.219516
0.008728 0.086061 0.016815
0.089754 0.070497 0.027924
0.194064 0.099031 0.057496
0.319646 0.127138 0.090211
0.445624 0.165469 0.108461
0.562341 0.215518 0.130190
0.684321 0.276402 0.163088
0.818784 0.344427 0.222232
0.048951 0.164645 0.076265
0.102449 0.162539 0.090791
0.213779 0.154910 0.094240
0.342260 0.176211 0.095644
0.461463 0.207218 0.113497
0.573114 0.249363 0.134951
0.690669 0.301884 0.168765
0.823056 0.364630 0.229007
0.119265 0.250278 0.104952
0.142885 0.249241 0.110811
0.222293 0.254643 0.126925
0.359258 0.240177 0.125826
0.490608 0.275486 0.116518
0.594629 0.309392 0.142885
0.706996 0.352453 0.180209
0.834134 0.405310 0.244724
0.179507 0.339025 0.132906
0.196292 0.338262 0.137606
0.248875 0.335180 0.157412
0.370703 0.365057 0.168551
0.496345 0.341680 0.169924
0.630030 0.389776 0.147890
0.733608 0.420142 0.195804
0.851560 0.461921 0.268864
0.238376 0.429389 0.163455
0.250767 0.428565 0.167239
0.295079 0.427283 0.184115
0.371008 0.436286 0.208927
0.494209 0.470222 0.224063
0.623255 0.450660 0.228733
0.758206 0.492103 0.222538
0.872557 0.526024 0.298131
0.300420 0.541680 0.202823
0.311070 0.541405 0.206302
0.349737 0.541405 0.222293
0.407233 0.541253 0.253788
0.513146 0.579431 0.281224
0.626947 0.593378 0.315862
0.755459 0.561517 0.328923
0.885313 0.595697 0.362066
0.370428 0.691218 0.269230
0.379919 0.691402 0.273564
0.415839 0.692012 0.291386
0.471931 0.693324 0.327428
0.540429 0.699886 0.383642
0.675898 0.750362 0.427497
0.781979 0.723537 0.492317
0.893492 0.688594 0.518822
0.000000 0.025574 0.108095
0.082246 0.048127 0.105501
0.194217 0.097139 0.067811
0.325170 0.136934 0.091920
0.451728 0.179934 0.110140
0.567590 0.229282 0.132387
0.687892 0.286503 0.165469
0.820829 0.349645 0.224247
0.000000 0.107637 0.105776
0.094392 0.114412 0.103120
0.204196 0.123476 0.090700
0.331456 0.150851 0.093660
0.455695 0.189456 0.111482
0.570703 0.237583 0.133730
0.690517 0.293248 0.167391
0.823117 0.355627 0.226932
0.072908 0.176577 0.089845
0.125032 0.179202 0.107301
0.222416 0.164279 0.099489
0.352728 0.191989 0.096773
0.471260 0.226474 0.115175
0.581933 0.269413 0.138399
0.698146 0.319432 0.173129
0.827665 0.376532 0.234134
0.136324 0.257633 0.110079
0.168032 0.258061 0.119905
0.242435 0.267460 0.131075
0.366094 0.248600 0.131838
0.499977 0.289311 0.117037
0.603388 0.324529 0.145296
0.714290 0.366003 0.184298
0.839078 0.415717 0.249851
0.192935 0.343359 0.137331
0.214237 0.343603 0.144350
0.260868 0.340795 0.163333
0.380865 0.373480 0.171756
0.499794 0.347326 0.174502
0.632441 0.396155 0.152804
0.737911 0.427588 0.197848
0.854520 0.468025 0.272496
0.249699 0.433204 0.167697
0.263554 0.433204 0.172488
0.304509 0.431800 0.188876
0.379553 0.442847 0.211765
0.499123 0.475868 0.226871
0.624598 0.453864 0.232334
0.758785 0.495369 0.227085
0.874418 0.529412 0.300420
0.308659 0.545342 0.206332
0.318975 0.545586 0.210239
0.356390 0.545647 0.226139
0.412024 0.545251 0.257115
0.517266 0.583978 0.283879
0.629999 0.597711 0.318730
0.757137 0.564324 0.332738
0.886717 0.598688 0.367102
0.373480 0.693568 0.271458
0.382757 0.693538 0.275608
0.418189 0.694148 0.293431
0.473823 0.695369 0.329473
0.540826 0.700313 0.384070
0.675990 0.750973 0.428260
0.782620 0.725368 0.493385
0.893767 0.689845 0.520867
0.000000 0.127504 0.210544
0.003784 0.120089 0.213016
0.208804 0.131411 0.216861
0.331731 0.147555 0.182284
0.457740 0.208682 0.156466
0.580377 0.262486 0.139437
0.698726 0.319249 0.173465
0.827695 0.373388 0.233433
0.000000 0.153933 0.209293
0.073701 0.154025 0.210239
0.213718 0.164034 0.214786
0.337346 0.177462 0.183627
0.463020 0.223148 0.162753
0.584161 0.273228 0.144564
0.701686 0.326909 0.175113
0.829282 0.378088 0.235447
0.040162 0.219669 0.206821
0.115114 0.223545 0.207523
0.232456 0.240085 0.210208
0.357397 0.235904 0.184268
0.479713 0.259678 0.165347
0.596002 0.303655 0.146120
0.708980 0.348394 0.180209
0.834440 0.396612 0.242618
0.121736 0.294102 0.186343
0.158175 0.300359 0.189639
0.256687 0.304173 0.207736
0.374670 0.286534 0.197452
0.508293 0.310887 0.143130
0.615351 0.350134 0.148043
0.723293 0.387976 0.189670
0.844327 0.431037 0.257023
0.194339 0.371618 0.173037
0.221164 0.372442 0.181643
0.288273 0.372259 0.205966
0.394202 0.394598 0.204105
0.505364 0.359808 0.185977
0.633997 0.409125 0.168429
0.745785 0.443275 0.201755
0.859312 0.479377 0.278447
0.264103 0.444190 0.176303
0.279423 0.445014 0.183230
0.326452 0.446052 0.204990
0.399969 0.459724 0.219242
0.511772 0.492714 0.234623
0.628260 0.463355 0.242985
0.760433 0.504723 0.240299
0.878538 0.537621 0.305394
0.319677 0.552850 0.211887
0.332006 0.553216 0.216556
0.371069 0.554162 0.234501
0.422583 0.554406 0.264988
0.526177 0.594507 0.290471
0.636194 0.609430 0.325170
0.757961 0.569879 0.341436
0.887022 0.604395 0.376837
0.381628 0.699428 0.277348
0.390417 0.699580 0.281529
0.422919 0.700069 0.298344
0.477363 0.701015 0.333959
0.542809 0.705135 0.389044
0.676387 0.754604 0.432959
0.784970 0.732937 0.497627
0.893950 0.693568 0.526909
0.000000 0.186130 0.325475
0.000000 0.181155 0.328985
0.160098 0.172915 0.343877
0.345464 0.204623 0.360571
0.460731 0.236454 0.331640
0.575982 0.255833 0.265721
0.698329 0.352453 0.262455
0.837705 0.395666 0.243992
0.000000 0.206699 0.324987
0.000000 0.203769 0.327398
0.172427 0.198245 0.342473
0.347631 0.227024 0.358953
0.463416 0.255100 0.331853
0.577478 0.279240 0.270176
0.700954 0.359533 0.264714
0.839231 0.400183 0.246036
0.000000 0.255894 0.324865
0.078645 0.257542 0.327001
0.202670 0.263523 0.335393
0.357580 0.289067 0.355444
0.472267 0.309056 0.325628
0.583825 0.352331 0.295537
0.709163 0.382574 0.267948
0.842985 0.415839 0.252354
0.093538 0.330602 0.323278
0.132601 0.333898 0.325200
0.233738 0.347723 0.333379
0.378027 0.380285 0.349462
0.495766 0.374517 0.314397
0.608576 0.392065 0.289403
0.727352 0.418280 0.261509
0.852232 0.446509 0.265660
0.154177 0.403418 0.297948
0.181277 0.408087 0.300206
0.270939 0.425544 0.308721
0.389014 0.437415 0.335332
0.507744 0.428717 0.334356
0.638727 0.441962 0.263096
0.753506 0.465278 0.239414
0.866545 0.492561 0.287114
0.229618 0.490150 0.278569
0.249180 0.493263 0.280400
0.321111 0.503014 0.292485
0.405707 0.499977 0.321050
0.522057 0.536706 0.328649
0.630823 0.493751 0.314275
0.763577 0.518517 0.259556
0.885100 0.548638 0.313878
0.308843 0.586694 0.266056
0.323766 0.586755 0.270176
0.372686 0.586145 0.284977
0.433692 0.582361 0.305882
0.528710 0.608301 0.319188
0.644831 0.629267 0.334905
0.760159 0.579675 0.356573
0.889616 0.614466 0.394079
0.396674 0.710536 0.288914
0.404395 0.710628 0.292790
0.432593 0.710872 0.308171
0.476936 0.710811 0.337285
0.541924 0.713130 0.394324
0.672419 0.759762 0.440253
0.788540 0.747494 0.504570
0.894865 0.700618 0.538445
0.000000 0.244022 0.449805
0.000000 0.241398 0.453437
0.000000 0.230320 0.471229
0.295506 0.245640 0.499275
0.463905 0.290562 0.528985
0.573510 0.332525 0.504601
0.694087 0.370764 0.464179
0.825559 0.467323 0.453437
0.000000 0.258732 0.448890
0.000000 0.256718 0.451942
0.078859 0.249546 0.469215
0.299840 0.262181 0.498024
0.465278 0.305669 0.528252
0.574823 0.346075 0.505150
0.695033 0.381415 0.463386
0.825467 0.482124 0.461067
0.000000 0.299443 0.450019
0.000000 0.299901 0.451850
0.153902 0.299443 0.461463
0.308965 0.311315 0.494148
0.471107 0.355352 0.525933
0.580499 0.393317 0.506188
0.699092 0.420996 0.459510
0.828733 0.515984 0.474403
0.000000 0.358465 0.449683
0.035706 0.360021 0.451850
0.194980 0.367071 0.461036
0.327214 0.384039 0.480690
0.482643 0.432685 0.521202
0.590478 0.459419 0.496345
0.703120 0.508659 0.477058
0.842924 0.521813 0.450599
0.115084 0.436774 0.448981
0.146883 0.439460 0.451087
0.235233 0.451545 0.460792
0.356085 0.478126 0.480629
0.501884 0.529870 0.515129
0.615747 0.524987 0.480110
0.735531 0.529625 0.447181
0.864439 0.530510 0.401404
0.174929 0.512200 0.426551
0.194156 0.515251 0.427893
0.264805 0.529076 0.434058
0.380865 0.557885 0.451026
0.501762 0.577661 0.485206
0.626032 0.576562 0.500755
0.768582 0.572686 0.420478
0.889494 0.569360 0.370092
0.254002 0.613672 0.416175
0.269047 0.616571 0.416999
0.325658 0.627955 0.419715
0.419593 0.644312 0.431373
0.506218 0.637293 0.448432
0.645960 0.683894 0.473335
0.759213 0.624231 0.471626
0.895537 0.627375 0.416022
0.343450 0.743313 0.416114
0.355383 0.743984 0.416358
0.400702 0.746548 0.419135
0.467659 0.743709 0.424842
0.531579 0.733242 0.420966
0.655512 0.764065 0.452186
0.792447 0.769741 0.513359
0.897063 0.711055 0.555169
0.000000 0.303838 0.576837
0.000000 0.302007 0.579522
0.000000 0.295109 0.592859
0.211124 0.288731 0.619287
0.411322 0.329442 0.650568
0.564080 0.390997 0.680293
0.689143 0.454627 0.671595
0.821897 0.535637 0.666499
0.000000 0.314763 0.576806
0.000000 0.313420 0.579736
0.000000 0.307897 0.592767
0.218753 0.301427 0.619471
0.413611 0.341466 0.650446
0.565637 0.402197 0.680415
0.690333 0.464515 0.672053
0.822538 0.542687 0.667018
0.000000 0.348425 0.576776
0.000000 0.347204 0.578088
0.000000 0.343267 0.585687
0.241489 0.343725 0.613123
0.418830 0.379767 0.646876
0.570184 0.441199 0.678553
0.693111 0.499977 0.671992
0.824308 0.567407 0.666316
0.000000 0.396216 0.576196
0.000000 0.396796 0.577722
0.121004 0.398596 0.584161
0.270451 0.402930 0.598352
0.426490 0.439246 0.639734
0.578820 0.504143 0.675105
0.697932 0.557061 0.671168
0.827726 0.604822 0.660487
0.000000 0.462257 0.576379
0.000000 0.463447 0.577844
0.175784 0.468574 0.584344
0.300694 0.480751 0.598169
0.433753 0.508721 0.623407
0.594293 0.584833 0.672816
0.708095 0.617243 0.661494
0.832883 0.662562 0.657435
0.121248 0.542382 0.575799
0.149813 0.544335 0.577325
0.230076 0.553094 0.584405
0.335515 0.572290 0.599115
0.458930 0.607935 0.624048
0.614435 0.673060 0.668330
0.737392 0.669825 0.642756
0.866575 0.662531 0.608637
0.183871 0.634913 0.572412
0.200595 0.636683 0.572900
0.258701 0.644373 0.574823
0.343877 0.658686 0.576196
0.468971 0.686458 0.587915
0.600305 0.705226 0.622614
0.748592 0.712367 0.656062
0.896300 0.698909 0.591089
0.266575 0.756435 0.578058
0.278996 0.757687 0.577417
0.325872 0.762539 0.574762
0.403571 0.771603 0.569848
0.507744 0.782650 0.573144
0.600610 0.771908 0.574731
0.784878 0.817227 0.618372
0.895689 0.743069 0.620874
0.000000 0.375860 0.717556
0.000000 0.374487 0.718990
0.000000 0.368505 0.725368
0.125124 0.361028 0.739345
0.363867 0.387152 0.760220
0.521935 0.449561 0.785672
0.670069 0.527276 0.806729
0.821256 0.622217 0.819913
0.000000 0.381811 0.714168
0.000000 0.380377 0.715602
0.000000 0.375128 0.722225
0.139986 0.368780 0.736172
0.364752 0.393408 0.757504
0.521599 0.454658 0.783017
0.669123 0.531365 0.804349
0.819577 0.624475 0.817899
0.000000 0.407507 0.713405
0.000000 0.405829 0.713680
0.000000 0.400488 0.717128
0.172824 0.397864 0.731106
0.369665 0.420630 0.754147
0.526207 0.482521 0.780606
0.674495 0.560082 0.803861
0.822080 0.645350 0.817929
0.000000 0.449805 0.713863
0.000000 0.448737 0.713985
0.000000 0.444648 0.715328
0.195346 0.440742 0.721767
0.373907 0.464149 0.747860
0.534417 0.529320 0.777523
0.685298 0.607477 0.803952
0.826658 0.679103 0.817136
0.000000 0.505516 0.710933
0.000000 0.504814 0.710780
0.000000 0.503319 0.712245
0.219394 0.501518 0.716762
0.361303 0.507378 0.727840
0.537713 0.579980 0.767880
0.696345 0.659327 0.800931
0.831754 0.717250 0.812497
0.000000 0.573816 0.706966
0.000000 0.574090 0.707393
0.130648 0.575616 0.709560
0.261326 0.579828 0.714870
0.378332 0.589166 0.724971
0.524315 0.626215 0.747555
0.716182 0.725032 0.801328
0.840848 0.758358 0.800107
0.110048 0.656092 0.705806
0.138766 0.657069 0.706508
0.214755 0.661250 0.709041
0.308446 0.670649 0.714534
0.414038 0.688472 0.724666
0.550622 0.725795 0.746059
0.738338 0.798489 0.796933
0.869322 0.799924 0.783108
0.193851 0.779812 0.732509
0.207553 0.780117 0.731868
0.257481 0.784360 0.731655
0.329229 0.789273 0.726955
0.415351 0.796201 0.716060
0.553338 0.813352 0.715297
0.710689 0.825803 0.743618
0.884092 0.832761 0.788693
0.000000 0.460609 0.861112
0.000000 0.459724 0.861509
0.000000 0.456550 0.862913
0.139590 0.457191 0.866636
0.364324 0.484504 0.873625
0.513878 0.540826 0.883452
0.655177 0.616266 0.896757
0.794980 0.687160 0.907439
0.000000 0.465583 0.860685
0.000000 0.464668 0.861082
0.000000 0.461524 0.862333
0.145510 0.461891 0.865751
0.364782 0.488411 0.872709
0.514641 0.544732 0.882689
0.655634 0.619440 0.896086
0.795560 0.690211 0.907134
0.000000 0.481910 0.857267
0.000000 0.480629 0.857145
0.000000 0.476905 0.857664
0.152560 0.479988 0.864469
0.365179 0.504173 0.871244
0.518517 0.562097 0.881468
0.659846 0.635004 0.895262
0.799313 0.703853 0.906798
0.000000 0.514549 0.857053
0.000000 0.513115 0.857145
0.000000 0.508293 0.856809
0.109224 0.504723 0.857755
0.350011 0.523400 0.864988
0.517937 0.585046 0.876890
0.663783 0.658045 0.892607
0.806394 0.727352 0.906523
0.000000 0.565484 0.856016
0.000000 0.564508 0.856046
0.000000 0.559869 0.856077
0.000000 0.549645 0.856382
0.304723 0.548486 0.857816
0.506340 0.610437 0.871275
0.666194 0.686793 0.889860
0.817380 0.758724 0.907317
0.000000 0.630152 0.855314
0.000000 0.629114 0.854795
0.000000 0.626001 0.854002
0.153994 0.620142 0.853696
0.290654 0.611078 0.855161
0.447333 0.621424 0.860258
0.662531 0.719966 0.885374
0.832670 0.798428 0.908873
0.000000 0.705989 0.854337
0.000000 0.705898 0.854337
0.118074 0.705470 0.854307
0.236606 0.704616 0.854490
0.338628 0.703609 0.855100
0.456764 0.708186 0.857481
0.617914 0.739467 0.866636
0.847868 0.843595 0.906950
0.176699 0.795529 0.856962
0.190402 0.795682 0.856809
0.238560 0.796841 0.856504
0.307988 0.799649 0.856260
0.393042 0.805264 0.856138
0.501396 0.816983 0.857176
0.648096 0.841794 0.863706
0.871580 0.905669 0.905150
