assets/luts/DRONE_CINEMA.cube
TITLE "Generated by Resolve"
LUT_3D_SIZE 9
0.0508888 0.068864 0.0693828
0.10956 0.0713664 0.0638285
0.17322 0.0750286 0.057145
0.24744 0.0734569 0.0420844
0.354467 0.0551308 0.0122988
0.442603 0.0340734 1.5259e-05
0.544518 0.0279698 0
0.621942 0.0303502 1.5259e-05
0.690211 0.0338903 0
0.0684977 0.114488 0.0876478
0.123476 0.11165 0.0796674
0.185946 0.113268 0.0630655
0.256489 0.110475 0.0369116
0.347951 0.102525 0.00355535
0.42182 0.0891432 1.5259e-05
0.503197 0.0598001 0
0.596994 0.0441291 0
0.679103 0.0449989 1.5259e-05
0.0806744 0.162219 0.109712
0.135744 0.157305 0.104372
0.198032 0.155001 0.0873579
0.272801 0.151003 0.0417792
0.357885 0.147906 0.00238041
0.438132 0.150332 0
0.528115 0.138918 1.5259e-05
0.583444 0.114946 0
0.652918 0.0916457 0
0.0988785 0.21384 0.132937
0.1402 0.214969 0.129152
0.208484 0.20676 0.122393
0.285237 0.206806 0.0762951
0.385229 0.202472 0.00392157
0.476753 0.211826 0
0.561044 0.217823 1.5259e-05
0.626215 0.214786 1.5259e-05
0.703151 0.214008 1.5259e-05
0.129549 0.278264 0.15819
0.144198 0.28365 0.156405
0.20853 0.288579 0.159197
0.28893 0.285389 0.150805
0.399954 0.279774 0.0339055
0.517647 0.294896 0.00367742
0.615015 0.310307 0.000885023
0.695048 0.320439 1.5259e-05
0.769848 0.331334 1.5259e-05
0.159472 0.353231 0.182391
0.168704 0.363867 0.18468
0.193301 0.384634 0.183047
0.293873 0.388281 0.194751
0.39704 0.390326 0.161013
0.529427 0.389075 0.028687
0.640452 0.40827 0.00740063
0.741711 0.427253 0.0043946
0.825422 0.441215 0.00227359
0.179995 0.435126 0.200946
0.186252 0.449592 0.202045
0.193713 0.475151 0.20058
0.272435 0.502708 0.201877
0.39472 0.491768 0.196109
0.519463 0.503044 0.125444
0.634836 0.503868 0.0419623
0.761913 0.521538 0.0194858
0.858351 0.542428 0.0423743
0.186862 0.520012 0.206348
0.188647 0.542199 0.204135
0.18819 0.574014 0.198215
0.237247 0.609033 0.187701
0.381476 0.615228 0.180529
0.513771 0.603433 0.140551
0.628214 0.615579 0.0846418
0.765805 0.625559 0.0557565
0.872221 0.643336 0.0944991
0.17145 0.631861 0.191028
0.164614 0.666621 0.179706
0.161044 0.703792 0.174731
0.205951 0.743511 0.156085
0.370718 0.760357 0.139559
0.518151 0.739391 0.106905
0.631006 0.736126 0.0700694
0.770977 0.75407 0.0603189
0.87013 0.766262 0.104463
0.0229953 0.0778821 0.0915541
0.0844587 0.0851453 0.108156
0.163775 0.0867628 0.103807
0.24828 0.0867781 0.0928054
0.369238 0.0720531 0.0662089
0.495613 0.02916 0.0234531
0.588983 0.0108492 0.000549325
0.648783 0.0202029 0.000106813
0.713848 0.0254978 3.0518e-05
0.0261234 0.119493 0.116075
0.0903487 0.124804 0.124544
0.169711 0.129519 0.119417
0.246616 0.131167 0.108721
0.357626 0.120653 0.076112
0.467903 0.0868696 0.0257267
0.551247 0.0437629 1.5259e-05
0.624125 0.033402 1.5259e-05
0.70341 0.0356909 1.5259e-05
0.0365148 0.163531 0.133745
0.103517 0.167697 0.140566
0.182727 0.169512 0.134279
0.262364 0.17171 0.116945
0.371572 0.163561 0.0734722
0.472038 0.144488 0.0200656
0.533394 0.128023 6.10361e-05
0.584985 0.100465 1.5259e-05
0.665263 0.0779583 1.5259e-05
0.0665141 0.216403 0.155901
0.109697 0.221668 0.160876
0.195911 0.222675 0.15996
0.275715 0.225269 0.14406
0.390997 0.221607 0.0821088
0.499657 0.210101 0.00450141
0.57055 0.21561 1.5259e-05
0.632395 0.213886 1.5259e-05
0.7093 0.213306 0
0.115328 0.283223 0.17879
0.130694 0.289784 0.182925
0.189532 0.304448 0.185504
0.28452 0.299138 0.18114
0.402121 0.304158 0.12549
0.529046 0.299428 0.00474556
0.620615 0.314153 0.00114443
0.701991 0.324636 0
0.778164 0.335836 0
0.155337 0.36025 0.200641
0.165743 0.372473 0.206531
0.185641 0.394202 0.213687
0.282521 0.410849 0.214679
0.398672 0.405249 0.19086
0.537118 0.408743 0.0899519
0.645426 0.416464 0.0124666
0.748837 0.434333 0.00527962
0.833936 0.448264 0.00230411
0.178714 0.444465 0.215595
0.186465 0.46041 0.220386
0.195346 0.487068 0.225818
0.253849 0.518456 0.218204
0.394751 0.513146 0.216663
0.524346 0.518517 0.151949
0.641047 0.521035 0.0839246
0.768856 0.534539 0.0413519
0.866697 0.556939 0.0721599
0.184314 0.532036 0.218235
0.188251 0.555779 0.221103
0.190158 0.588678 0.222507
0.219867 0.625162 0.211429
0.377905 0.641108 0.202853
0.518883 0.6224 0.168063
0.634119 0.63241 0.113848
0.773495 0.642954 0.0911574
0.879072 0.659739 0.130632
0.165026 0.647578 0.2065
0.160464 0.684443 0.204288
0.155276 0.72134 0.205051
0.188968 0.760845 0.202106
0.368627 0.793133 0.190478
0.529992 0.771969 0.169543
0.642115 0.760189 0.14548
0.78291 0.776196 0.116823
0.87863 0.785779 0.159197
0.00675975 0.0878004 0.108156
0.0500649 0.100938 0.134218
0.138674 0.104112 0.154955
0.230396 0.102434 0.148943
0.368353 0.0855421 0.119707
0.49984 0.0434272 0.0764172
0.611322 0.00535592 0.0342718
0.690715 0.00459297 0.0115053
0.753475 0.0116732 0.00195315
0.000869764 0.125856 0.136309
0.0523384 0.135088 0.152316
0.134401 0.147173 0.176516
0.239796 0.143038 0.161334
0.362737 0.137438 0.135836
0.485649 0.111101 0.0979171
0.611856 0.0490883 0.0417792
0.688899 0.0111543 0.00434882
0.747219 0.0198672 0.000534066
0.000488289 0.167605 0.160845
0.0522774 0.175402 0.174212
0.141604 0.186481 0.195773
0.243732 0.192172 0.178424
0.361318 0.18996 0.160266
0.486625 0.169146 0.113603
0.600397 0.132174 0.0578164
0.668055 0.0848402 0.0111696
0.730007 0.0583505 4.57771e-05
0.0187228 0.219516 0.181796
0.0577401 0.224887 0.188907
0.158999 0.240253 0.209216
0.261707 0.244099 0.197986
0.383536 0.249287 0.173404
0.511208 0.238712 0.12163
0.625116 0.220493 0.0651865
0.703731 0.203967 0.0271305
0.770077 0.201404 0.0122072
0.0817121 0.288228 0.20441
0.0969558 0.296056 0.210788
0.15584 0.314763 0.226108
0.273732 0.326253 0.23003
0.398276 0.329686 0.208331
0.537438 0.336614 0.148943
0.64831 0.336873 0.0910964
0.741085 0.33489 0.0445411
0.828962 0.338643 0.0215763
0.140108 0.369741 0.224948
0.150927 0.383566 0.234836
0.168933 0.406928 0.248356
0.261311 0.43418 0.253498
0.400107 0.425895 0.243076
0.543587 0.439338 0.197391
0.65922 0.450523 0.141314
0.768841 0.459297 0.0923171
0.861128 0.471397 0.0833753
0.173129 0.457176 0.240833
0.179995 0.474784 0.248905
0.187167 0.50251 0.260029
0.234684 0.534295 0.262592
0.393484 0.54435 0.257603
0.533227 0.541787 0.216938
0.654337 0.550118 0.190478
0.783352 0.56437 0.146517
0.879164 0.583261 0.160342
0.178836 0.545876 0.240772
0.181704 0.571862 0.247593
0.182589 0.605722 0.254841
0.201312 0.642191 0.259266
0.371832 0.673884 0.248447
0.528557 0.650385 0.230457
0.646738 0.65919 0.19852
0.788952 0.670954 0.190311
0.890379 0.685313 0.209445
0.156527 0.665446 0.232731
0.151385 0.70251 0.23711
0.146014 0.739361 0.245686
0.165011 0.779156 0.254398
0.364218 0.820478 0.250187
0.542046 0.808362 0.244343
0.655253 0.788403 0.235645
0.799741 0.805081 0.219165
0.894713 0.815106 0.270436
0.000854505 0.0992142 0.123949
0.0251621 0.113649 0.146029
0.0865797 0.130938 0.194385
0.203586 0.122606 0.200656
0.34139 0.108095 0.195499
0.491691 0.0714427 0.154238
0.612512 0.0268406 0.106783
0.697841 0.00749218 0.0704814
0.778698 0.00411994 0.0434424
3.0518e-05 0.133104 0.151461
0.0278325 0.145571 0.172244
0.0901656 0.162844 0.200076
0.204181 0.164172 0.223285
0.346838 0.153094 0.204425
0.489708 0.124102 0.16286
0.618814 0.0691539 0.113024
0.701396 0.0165103 0.0674144
0.79118 0.00445563 0.0376745
1.5259e-05 0.170535 0.179782
0.0135348 0.183139 0.198322
0.0993973 0.198199 0.222629
0.201068 0.213443 0.252522
0.359167 0.202533 0.224353
0.497627 0.187472 0.189746
0.626474 0.156115 0.147768
0.716426 0.111589 0.10425
0.815213 0.062562 0.0629587
3.0518e-05 0.217792 0.210895
0.00596628 0.229969 0.223239
0.0945602 0.249821 0.25066
0.209308 0.267201 0.279576
0.367926 0.274708 0.259922
0.505791 0.269856 0.232212
0.631083 0.253697 0.191974
0.722179 0.236286 0.161395
0.818311 0.221683 0.132799
0.0229953 0.291905 0.236179
0.0378271 0.301137 0.244419
0.0869459 0.319661 0.262638
0.232715 0.347127 0.296376
0.388785 0.355734 0.284047
0.534707 0.368963 0.257435
0.65565 0.370535 0.21796
0.760647 0.367208 0.184527
0.856901 0.368582 0.166918
0.0994583 0.37882 0.260029
0.109499 0.393805 0.271901
0.123262 0.417578 0.28751
0.221363 0.448508 0.313329
0.39765 0.460426 0.313756
0.545846 0.469001 0.296086
0.667704 0.482994 0.259052
0.783307 0.494026 0.224018
0.875425 0.508583 0.224308
0.148928 0.471153 0.27509
0.153979 0.490059 0.286641
0.160449 0.518196 0.301198
0.201511 0.550408 0.318151
0.381186 0.583612 0.31931
0.540124 0.569009 0.304128
0.665309 0.579965 0.297551
0.798276 0.597543 0.2654
0.893812 0.613352 0.267399
0.164767 0.562524 0.279728
0.165499 0.590677 0.290623
0.164858 0.623941 0.303227
0.180087 0.660929 0.316258
0.357946 0.700725 0.315114
0.540887 0.690227 0.310628
0.65893 0.688167 0.297414
0.804379 0.701625 0.300984
0.904204 0.715343 0.309346
0.143297 0.686244 0.277729
0.137621 0.722408 0.289631
0.130709 0.759091 0.302907
0.153338 0.798001 0.318883
0.357351 0.839734 0.322179
0.549645 0.845426 0.321813
0.669825 0.821622 0.319219
0.814038 0.831235 0.311589
0.908583 0.841657 0.366293
3.0518e-05 0.115297 0.144259
0.00872816 0.130388 0.167269
0.0402686 0.150607 0.199542
0.141772 0.163943 0.277684
0.299413 0.134783 0.269108
0.446281 0.106477 0.258259
0.595087 0.0799573 0.221698
0.69456 0.0453651 0.183886
0.782956 0.0104372 0.145312
1.5259e-05 0.145434 0.171557
0.0138705 0.159121 0.194232
0.0570687 0.176196 0.218112
0.129427 0.198032 0.274342
0.299504 0.180514 0.281239
0.450355 0.151537 0.267079
0.602991 0.105303 0.226154
0.696025 0.0643778 0.186038
0.793362 0.0280003 0.148272
3.0518e-05 0.180911 0.20209
0.00440986 0.191424 0.218906
0.0700999 0.210727 0.24799
0.138003 0.233265 0.284627
0.311513 0.226886 0.308064
0.473167 0.206439 0.287282
0.623636 0.171786 0.246494
0.720668 0.130495 0.208179
0.82092 0.0882429 0.175082
3.0518e-05 0.225711 0.238972
3.0518e-05 0.23183 0.246235
0.0379034 0.260471 0.286519
0.160922 0.281514 0.31606
0.332113 0.293889 0.351888
0.508675 0.281178 0.319158
0.650431 0.266468 0.287938
0.761257 0.245624 0.260746
0.868757 0.228046 0.237949
1.5259e-05 0.285328 0.275135
1.5259e-05 0.295918 0.284535
0.00518807 0.324926 0.312734
0.160311 0.357153 0.356146
0.335241 0.387396 0.399374
0.528939 0.395285 0.369863
0.65742 0.398459 0.351492
0.773632 0.39324 0.325368
0.874372 0.391928 0.308873
0.0139162 0.382269 0.305562
0.0274968 0.39884 0.3187
0.0434119 0.421958 0.335607
0.141283 0.452522 0.364675
0.371481 0.492332 0.407355
0.543648 0.497612 0.397238
0.671321 0.513436 0.375799
0.792676 0.52488 0.347875
0.889326 0.536461 0.341466
0.0856947 0.481331 0.325673
0.0930648 0.501076 0.33872
0.100633 0.528145 0.354314
0.135286 0.558968 0.373846
0.362005 0.602167 0.415824
0.545678 0.600275 0.406867
0.674022 0.609201 0.408606
0.809293 0.628244 0.383246
0.907027 0.641611 0.376532
0.116655 0.577447 0.332601
0.117998 0.605905 0.345647
0.11841 0.63743 0.359594
0.127504 0.672938 0.374548
0.340734 0.717922 0.411963
0.545785 0.734874 0.410224
0.669688 0.717159 0.407782
0.817853 0.731304 0.415717
0.918959 0.744732 0.412726
0.103822 0.705501 0.33373
0.0982223 0.739849 0.346288
0.0944228 0.773648 0.361318
0.104173 0.811887 0.378592
0.34522 0.857542 0.419333
0.548837 0.889738 0.421744
0.684932 0.864576 0.424155
0.827161 0.860121 0.420813
0.923858 0.870115 0.473106
3.0518e-05 0.136416 0.170779
0.0015259 0.151492 0.193606
0.0202945 0.169787 0.221286
0.0678416 0.197147 0.270054
0.265141 0.187716 0.336934
0.400046 0.149752 0.349065
0.537057 0.125032 0.343465
0.643427 0.10782 0.320378
0.754238 0.0816358 0.286976
3.0518e-05 0.1635 0.19762
0.0110018 0.178439 0.221363
0.0354162 0.193851 0.243137
0.0762188 0.217319 0.282841
0.251133 0.219318 0.378378
0.39736 0.18294 0.359396
0.538216 0.144366 0.351217
0.645914 0.119463 0.325124
0.763226 0.0937362 0.294331
0 0.195453 0.22678
0.00117494 0.207996 0.247883
0.0499275 0.227375 0.275731
0.0988174 0.249454 0.308965
0.244236 0.26363 0.422721
0.412329 0.240467 0.384344
0.55993 0.205585 0.377249
0.673167 0.164004 0.350698
0.789731 0.127016 0.324407
3.0518e-05 0.238636 0.267521
3.0518e-05 0.245106 0.275532
0.0197757 0.273198 0.320363
0.128374 0.297871 0.350607
0.248524 0.330373 0.437858
0.446189 0.311788 0.43003
0.602808 0.291447 0.421454
0.737453 0.262455 0.397757
0.859953 0.239384 0.373007
0 0.297185 0.317205
1.5259e-05 0.307668 0.328634
3.0518e-05 0.324605 0.348089
0.102068 0.371756 0.416938
0.2907 0.408133 0.457038
0.496559 0.414252 0.489097
0.6663 0.404852 0.469337
0.801724 0.395789 0.44004
0.917678 0.388449 0.421576
1.5259e-05 0.374273 0.364508
3.0518e-05 0.390646 0.379553
3.0518e-05 0.413077 0.399558
0.0574502 0.462882 0.450706
0.307637 0.500786 0.502007
0.506828 0.533486 0.541985
0.678355 0.539574 0.506249
0.810468 0.547189 0.492058
0.916579 0.551522 0.479179
3.0518e-05 0.474708 0.388525
0.00257877 0.501244 0.406912
0.0081178 0.529473 0.426734
0.036347 0.558633 0.447227
0.300938 0.607569 0.499352
0.543542 0.644007 0.535088
0.682063 0.640421 0.533867
0.819425 0.65948 0.514565
0.921736 0.669581 0.49958
0.0368963 0.583856 0.396994
0.0421302 0.612619 0.41413
0.0471962 0.643076 0.432547
0.0612192 0.67776 0.45182
0.287007 0.728008 0.503182
0.53698 0.768536 0.537926
0.682948 0.755703 0.539376
0.830839 0.763394 0.548226
0.934417 0.776226 0.534676
0.0395666 0.718395 0.406973
0.0390021 0.750347 0.423804
0.0389715 0.784421 0.442451
0.0532387 0.821485 0.462821
0.299931 0.872831 0.518914
0.538888 0.911208 0.550179
0.694026 0.915984 0.552087
0.839994 0.892821 0.553582
0.940978 0.90042 0.596445
3.0518e-05 0.160708 0.201419
9.15541e-05 0.174472 0.222278
0.012665 0.191653 0.248417
0.0494392 0.216495 0.288792
0.182376 0.240848 0.414359
0.390127 0.195117 0.39527
0.497581 0.168307 0.41973
0.591897 0.146136 0.412909
0.700435 0.123247 0.398856
3.0518e-05 0.184466 0.227176
0.00842298 0.198764 0.248875
0.0254673 0.21294 0.269245
0.0566873 0.234104 0.30341
0.160159 0.263569 0.405493
0.375799 0.225193 0.399634
0.496956 0.181674 0.43003
0.592004 0.157595 0.423468
0.703258 0.136065 0.413062
1.5259e-05 0.212177 0.252552
0.00367742 0.227848 0.280156
0.0446784 0.244419 0.301137
0.0793774 0.265248 0.333318
0.171313 0.297536 0.426093
0.394125 0.265278 0.438941
0.51458 0.228763 0.456703
0.612848 0.188479 0.45095
0.725399 0.15935 0.443671
1.5259e-05 0.251102 0.290623
1.5259e-05 0.261814 0.306737
0.029221 0.28835 0.350225
0.115648 0.312932 0.378546
0.199893 0.351217 0.456672
0.432212 0.327947 0.511055
0.551736 0.318944 0.504265
0.671519 0.293889 0.504417
0.796658 0.266728 0.498116
0 0.308019 0.346517
1.5259e-05 0.319387 0.35996
1.5259e-05 0.340475 0.388891
0.0953078 0.385733 0.459342
0.267048 0.426337 0.502708
0.458564 0.434226 0.621042
0.607843 0.42974 0.568078
0.753536 0.413092 0.564828
0.890883 0.396445 0.551064
0 0.386297 0.412985
0 0.403204 0.431174
1.5259e-05 0.42211 0.45095
0.0306706 0.472587 0.519066
0.278553 0.514458 0.576089
0.487709 0.552148 0.611872
0.662135 0.550286 0.622309
0.830854 0.5458 0.600656
0.95346 0.544854 0.580438
0 0.470268 0.458015
1.5259e-05 0.490272 0.47451
1.5259e-05 0.514473 0.494697
3.0518e-05 0.558236 0.531929
0.274754 0.611139 0.592416
0.51397 0.646235 0.633127
0.679454 0.66772 0.654093
0.833844 0.67834 0.629679
0.944183 0.683314 0.618479
3.0518e-05 0.565667 0.474037
3.0518e-05 0.599466 0.494499
3.0518e-05 0.634134 0.51426
0.0055848 0.67332 0.53373
0.248371 0.726131 0.580468
0.518151 0.774289 0.635477
0.692531 0.792157 0.65333
0.841871 0.788388 0.66009
0.946868 0.801221 0.643931
3.0518e-05 0.709407 0.486809
3.0518e-05 0.745571 0.503502
3.0518e-05 0.782712 0.520836
0.012192 0.823163 0.539727
0.266011 0.876722 0.596292
0.52752 0.921294 0.651911
0.693477 0.943587 0.663035
0.85124 0.920012 0.666545
0.954818 0.922515 0.698405
3.0518e-05 0.193606 0.243412
3.0518e-05 0.207141 0.264439
0.012314 0.223178 0.288502
0.0429541 0.246571 0.32549
0.116793 0.284794 0.41207
0.351232 0.263569 0.510658
0.49604 0.208347 0.484016
0.561685 0.185153 0.492363
0.651926 0.16553 0.485466
0.000244144 0.215442 0.269673
0.00669871 0.226459 0.286107
0.020676 0.239979 0.305821
0.0463264 0.259617 0.33724
0.110353 0.295018 0.411734
0.32163 0.27866 0.552209
0.493736 0.221759 0.491157
0.565454 0.194949 0.504082
0.653834 0.176379 0.499184
3.0518e-05 0.240818 0.297078
0.0165866 0.255329 0.318441
0.0416724 0.269429 0.337255
0.0669871 0.289128 0.368978
0.128603 0.323781 0.441047
0.322362 0.310994 0.599451
0.503838 0.259007 0.513924
0.585809 0.218143 0.531945
0.67219 0.196857 0.530541
3.0518e-05 0.273152 0.327901
0.0028687 0.291402 0.359487
0.0465248 0.313085 0.388067
0.105257 0.336904 0.419455
0.171908 0.37496 0.496574
0.358129 0.368277 0.662715
0.54226 0.337453 0.570581
0.63653 0.315007 0.590524
0.735393 0.293034 0.593851
1.5259e-05 0.324041 0.381033
1.5259e-05 0.336294 0.398138
0.007187 0.369574 0.453559
0.107271 0.409567 0.505455
0.249531 0.451438 0.560494
0.408286 0.465095 0.713405
0.599023 0.445655 0.649104
0.704326 0.436667 0.66334
0.81976 0.423468 0.66804
1.5259e-05 0.401648 0.460395
0 0.41828 0.481849
1.5259e-05 0.437034 0.506508
0.0464637 0.490394 0.595361
0.265232 0.539269 0.644938
0.457694 0.574945 0.697322
0.651041 0.565713 0.741009
0.771481 0.568689 0.723964
0.905745 0.55845 0.723812
1.5259e-05 0.483665 0.521614
0 0.502983 0.542443
3.0518e-05 0.524453 0.565759
0.00062562 0.571206 0.625406
0.265171 0.626184 0.70489
0.482353 0.663691 0.73228
0.669505 0.68481 0.771634
0.82919 0.684581 0.759335
0.966751 0.680262 0.743832
1.5259e-05 0.570657 0.553429
1.5259e-05 0.594553 0.5729
3.0518e-05 0.627878 0.601389
3.0518e-05 0.673259 0.638758
0.250248 0.731655 0.699474
0.491585 0.770565 0.738766
0.678798 0.797467 0.766781
0.85417 0.813169 0.778561
0.963943 0.822599 0.765728
3.0518e-05 0.693034 0.567697
3.0518e-05 0.730404 0.589837
3.0518e-05 0.768353 0.612192
3.0518e-05 0.812619 0.635523
0.249668 0.876112 0.690333
0.496727 0.921767 0.741466
0.686503 0.952041 0.779965
0.865476 0.956527 0.790631
0.969528 0.944656 0.809232
3.0518e-05 0.233951 0.297337
0.00486763 0.246677 0.317159
0.0204166 0.261036 0.338842
0.0485084 0.282887 0.374807
0.101335 0.315007 0.441306
0.278233 0.315099 0.611002
0.467948 0.282673 0.524956
0.561242 0.222751 0.549722
0.633295 0.198535 0.566018
0.00320439 0.251102 0.318059
0.0120394 0.261112 0.333074
0.0259556 0.273884 0.352529
0.0501259 0.293172 0.384649
0.0993973 0.323568 0.447608
0.249073 0.330861 0.605142
0.469047 0.294926 0.549722
0.564523 0.237415 0.563821
0.639918 0.207813 0.58143
0.0137636 0.277607 0.349004
0.0301823 0.287663 0.362921
0.0450752 0.301152 0.383703
0.069276 0.321096 0.417243
0.119295 0.352483 0.484199
0.259297 0.357733 0.639048
0.486076 0.31426 0.597436
0.579889 0.261662 0.590738
0.665949 0.224948 0.616922
0.00230411 0.311269 0.390814
0.0327306 0.32668 0.411093
0.073991 0.344045 0.432944
0.108873 0.368551 0.472358
0.162631 0.403784 0.549935
0.310613 0.407553 0.713146
0.538048 0.3682 0.689128
0.626368 0.340673 0.652583
0.723018 0.309133 0.682094
1.5259e-05 0.34934 0.430854
0.00134279 0.376272 0.473579
0.0517586 0.408865 0.519448
0.143999 0.441627 0.560403
0.24332 0.481971 0.631846
0.382406 0.490913 0.792615
0.602441 0.458701 0.807645
0.695735 0.453391 0.735439
0.797757 0.437705 0.762005
1.5259e-05 0.420798 0.515038
0 0.437812 0.540642
0.00115969 0.474937 0.598566
0.108446 0.527153 0.671473
0.289326 0.57116 0.718669
0.448051 0.596902 0.79675
0.636957 0.581186 0.903273
0.762737 0.583566 0.80734
0.866026 0.576837 0.829557
0 0.501106 0.593622
1.5259e-05 0.519677 0.618235
1.5259e-05 0.540612 0.646097
0.0430915 0.605264 0.74995
0.28423 0.655619 0.794324
0.458885 0.692348 0.829038
0.66041 0.704082 0.885252
0.813352 0.699763 0.858686
0.911086 0.701778 0.871824
3.0518e-05 0.588815 0.644419
1.5259e-05 0.611414 0.667369
0 0.640192 0.697261
0.00984207 0.699123 0.770062
0.278828 0.752148 0.839338
0.479072 0.785351 0.868315
0.658854 0.815183 0.883574
0.850217 0.827771 0.918364
0.96054 0.831083 0.905486
1.5259e-05 0.703975 0.676661
3.0518e-05 0.738201 0.703182
3.0518e-05 0.77908 0.734417
0.00271611 0.830549 0.772305
0.292073 0.884382 0.827924
0.488624 0.917876 0.859754
0.663661 0.945571 0.886046
0.859648 0.970443 0.91841
0.985443 0.968353 0.930159
