assets/luts/DRONE_CINEMA.cube
TITLE "Generated by Resolve"
LUT_3D_SIZE 5
0.0508888 0.068864 0.0693828
0.17322 0.0750286 0.057145
0.354467 0.0551308 0.0122988
0.544518 0.0279698 0
0.690211 0.0338903 0
0.0806744 0.162219 0.109712
0.198032 0.155001 0.0873579
0.357885 0.147906 0.00238041
0.528115 0.138918 1.5259e-05
0.652918 0.0916457 0
0.129549 0.278264 0.15819
0.20853 0.288579 0.159197
0.399954 0.279774 0.0339055
0.615015 0.310307 0.000885023
0.769848 0.331334 1.5259e-05
0.179995 0.435126 0.200946
0.193713 0.475151 0.20058
0.39472 0.491768 0.196109
0.634836 0.503868 0.0419623
0.858351 0.542428 0.0423743
0.17145 0.631861 0.191028
0.161044 0.703792 0.174731
0.370718 0.760357 0.139559
0.631006 0.736126 0.0700694
0.87013 0.766262 0.104463
0.00675975 0.0878004 0.108156
0.138674 0.104112 0.154955
0.368353 0.0855421 0.119707
0.611322 0.00535592 0.0342718
0.753475 0.0116732 0.00195315
0.000488289 0.167605 0.160845
0.141604 0.186481 0.195773
0.361318 0.18996 0.160266
0.600397 0.132174 0.0578164
0.730007 0.0583505 4.57771e-05
0.0817121 0.288228 0.20441
0.15584 0.314763 0.226108
0.398276 0.329686 0.208331
0.64831 0.336873 0.0910964
0.828962 0.338643 0.0215763
0.173129 0.457176 0.240833
0.187167 0.50251 0.260029
0.393484 0.54435 0.257603
0.654337 0.550118 0.190478
0.879164 0.583261 0.160342
0.156527 0.665446 0.232731
0.146014 0.739361 0.245686
0.364218 0.820478 0.250187
0.655253 0.788403 0.235645
0.894713 0.815106 0.270436
3.0518e-05 0.115297 0.144259
0.0402686 0.150607 0.199542
0.299413 0.134783 0.269108
0.595087 0.0799573 0.221698
0.782956 0.0104372 0.145312
3.0518e-05 0.180911 0.20209
0.0700999 0.210727 0.24799
0.311513 0.226886 0.308064
0.623636 0.171786 0.246494
0.82092 0.0882429 0.175082
1.5259e-05 0.285328 0.275135
0.00518807 0.324926 0.312734
0.335241 0.387396 0.399374
0.65742 0.398459 0.351492
0.874372 0.391928 0.308873
0.0856947 0.481331 0.325673
0.100633 0.528145 0.354314
0.362005 0.602167 0.415824
0.674022 0.609201 0.408606
0.907027 0.641611 0.376532
0.103822 0.705501 0.33373
0.0944228 0.773648 0.361318
0.34522 0.857542 0.419333
0.684932 0.864576 0.424155
0.923858 0.870115 0.473106
3.0518e-05 0.160708 0.201419
0.012665 0.191653 0.248417
0.182376 0.240848 0.414359
0.497581 0.168307 0.41973
0.700435 0.123247 0.398856
1.5259e-05 0.212177 0.252552
0.0446784 0.244419 0.301137
0.171313 0.297536 0.426093
0.51458 0.228763 0.456703
0.725399 0.15935 0.443671
0 0.308019 0.346517
1.5259e-05 0.340475 0.388891
0.267048 0.426337 0.502708
0.607843 0.42974 0.568078
0.890883 0.396445 0.551064
0 0.470268 0.458015
1.5259e-05 0.514473 0.494697
0.274754 0.611139 0.592416
0.679454 0.66772 0.654093
0.944183 0.683314 0.618479
3.0518e-05 0.709407 0.486809
3.0518e-05 0.782712 0.520836
0.266011 0.876722 0.596292
0.693477 0.943587 0.663035
0.954818 0.922515 0.698405
3.0518e-05 0.233951 0.297337
0.0204166 0.261036 0.338842
0.101335 0.315007 0.441306
0.467948 0.282673 0.524956
0.633295 0.198535 0.566018
0.0137636 0.277607 0.349004
0.0450752 0.301152 0.383703
0.119295 0.352483 0.484199
0.486076 0.31426 0.597436
0.665949 0.224948 0.616922
1.5259e-05 0.34934 0.430854
0.0517586 0.408865 0.519448
0.24332 0.481971 0.631846
0.602441 0.458701 0.807645
0.797757 0.437705 0.762005
0 0.501106 0.593622
1.5259e-05 0.540612 0.646097
0.28423 0.655619 0.794324
0.66041 0.704082 0.885252
0.911086 0.701778 0.871824
1.5259e-05 0.703975 0.676661
3.0518e-05 0.77908 0.734417
0.292073 0.884382 0.827924
0.663661 0.945571 0.886046
0.985443 0.968353 0.930159
