assets/luts/DRONE_CINEMA.cube
TITLE "Generated by Resolve"
LUT_3D_SIZE 33
0.0508888 0.068864 0.0693828
0.0623331 0.0690471 0.069688
0.0779889 0.0696574 0.0674754
0.0930953 0.0704814 0.0656138
0.10956 0.0713664 0.0638285
0.126162 0.0724193 0.0620737
0.141878 0.0733806 0.0605325
0.157351 0.0743572 0.0590524
0.17322 0.0750286 0.057145
0.189731 0.0753948 0.0543679
0.207172 0.0752422 0.0509804
0.226459 0.0746471 0.0469215
0.24744 0.0734569 0.0420844
0.270832 0.071458 0.0364691
0.297169 0.067628 0.029099
0.325902 0.0623026 0.0205386
0.354467 0.0551308 0.0122988
0.379141 0.0465705 0.00454719
0.397177 0.0394598 6.10361e-05
0.418112 0.0363012 0
0.442603 0.0340734 1.5259e-05
0.471611 0.0317388 0
0.50071 0.0298314 1.5259e-05
0.524926 0.0285191 3.0518e-05
0.544518 0.0279698 0
0.56405 0.0282597 0
0.583505 0.0288701 1.5259e-05
0.602777 0.0295567 1.5259e-05
0.621942 0.0303502 1.5259e-05
0.641581 0.0310063 3.0518e-05
0.659739 0.0318608 1.5259e-05
0.675639 0.0327916 0
0.690211 0.0338903 0
0.0548257 0.079118 0.0737011
0.0646677 0.0790417 0.0744335
0.0803235 0.0800031 0.07187
0.0954604 0.0810101 0.069337
0.111849 0.0817731 0.067155
0.128252 0.0828412 0.0651255
0.143923 0.0837415 0.0633402
0.159228 0.0846723 0.0617533
0.174929 0.0852674 0.0594186
0.191119 0.0850385 0.0558175
0.208377 0.0847944 0.0518196
0.227604 0.0839094 0.0466468
0.248249 0.0823835 0.0407721
0.271275 0.080354 0.0342565
0.297261 0.076524 0.0256352
0.325597 0.0713207 0.0158846
0.3514 0.0660868 0.00846876
0.372778 0.0592355 0.00267033
0.389853 0.0536202 3.0518e-05
0.408484 0.0489204 0
0.430259 0.0437781 0
0.457374 0.0381933 0
0.488151 0.0354925 1.5259e-05
0.514702 0.0335546 1.5259e-05
0.536187 0.0323339 0
0.556237 0.0319066 0
0.576318 0.0316167 1.5259e-05
0.595941 0.0318914 0
0.615442 0.0327459 0
0.635676 0.0334478 1.5259e-05
0.655116 0.0343938 1.5259e-05
0.671748 0.0353552 1.5259e-05
0.686519 0.0363928 0
0.0600137 0.0910353 0.0781262
0.0708934 0.0907759 0.0779889
0.0856947 0.0907454 0.0756542
0.0998093 0.0909438 0.0736095
0.115862 0.0916304 0.0707408
0.13196 0.0924239 0.0677348
0.147753 0.0933852 0.0652323
0.163104 0.0941482 0.0629435
0.178714 0.0945449 0.0599832
0.194766 0.0945144 0.0559548
0.211704 0.0943008 0.0512856
0.230457 0.0932326 0.0455024
0.250889 0.091783 0.0389715
0.273304 0.0894789 0.0311284
0.298116 0.0859998 0.0222477
0.325444 0.0813458 0.0122683
0.349081 0.0772717 0.00534066
0.367071 0.07187 0.000991836
0.383932 0.0677348 1.5259e-05
0.402136 0.0632639 0
0.422995 0.0576638 1.5259e-05
0.447684 0.0520638 0
0.476158 0.0461128 1.5259e-05
0.504082 0.0404974 1.5259e-05
0.528389 0.0366674 0
0.548699 0.0361486 1.5259e-05
0.569497 0.0355383 1.5259e-05
0.589441 0.0354772 0
0.609491 0.035584 0
0.630274 0.0358587 0
0.650965 0.0369268 0
0.668681 0.0379339 0
0.683665 0.0390631 0
0.0650645 0.102434 0.0822461
0.0770428 0.102083 0.0813611
0.090898 0.101305 0.0795758
0.104036 0.100542 0.077821
0.119799 0.101213 0.074403
0.135943 0.101961 0.0705272
0.151507 0.102678 0.0671702
0.166827 0.103197 0.0641642
0.182528 0.103685 0.0607309
0.198322 0.103731 0.0562295
0.215076 0.103548 0.0513466
0.233646 0.102419 0.0448157
0.253559 0.100984 0.0373236
0.275731 0.0988022 0.0283513
0.299641 0.0959029 0.0191806
0.325475 0.092546 0.0099031
0.348486 0.0899214 0.00436408
0.367208 0.086305 0.000457771
0.38352 0.0828107 0
0.400351 0.0781262 0
0.417899 0.0717021 1.5259e-05
0.439506 0.0656443 1.5259e-05
0.46537 0.0594949 1.5259e-05
0.491783 0.0529183 1.5259e-05
0.515984 0.047715 0
0.539101 0.0433509 1.5259e-05
0.563226 0.0393835 1.5259e-05
0.583551 0.0392309 1.5259e-05
0.604089 0.0391852 0
0.625162 0.0393378 0
0.646571 0.0399634 1.5259e-05
0.665965 0.0406806 0
0.681666 0.0415656 0
0.0684977 0.114488 0.0876478
0.0805829 0.114015 0.0868238
0.0946059 0.112642 0.0847639
0.108019 0.111666 0.0830701
0.123476 0.11165 0.0796674
0.139086 0.112139 0.0762036
0.154574 0.112505 0.0721752
0.170138 0.112886 0.0677043
0.185946 0.113268 0.0630655
0.202014 0.113176 0.0580301
0.218814 0.113085 0.0525521
0.237018 0.112078 0.045243
0.256489 0.110475 0.0369116
0.278218 0.10837 0.0271916
0.301335 0.10602 0.017258
0.325719 0.103792 0.00839246
0.347951 0.102525 0.00355535
0.367559 0.100664 0.000228885
0.385306 0.0980697 0
0.403128 0.0942855 0
0.42182 0.0891432 1.5259e-05
0.441123 0.0825666 1.5259e-05
0.460929 0.0749676 1.5259e-05
0.479728 0.0656291 3.0518e-05
0.503197 0.0598001 0
0.52549 0.0553445 1.5259e-05
0.54873 0.0510567 0
0.572198 0.0473945 1.5259e-05
0.596994 0.0441291 0
0.620691 0.0427405 1.5259e-05
0.641932 0.0434882 1.5259e-05
0.662531 0.0441901 0
0.679103 0.0449989 1.5259e-05
0.0716106 0.12639 0.0931411
0.0836194 0.126268 0.0927749
0.0980545 0.124392 0.0904097
0.111864 0.12285 0.0883955
0.126925 0.12224 0.0852827
0.142123 0.122148 0.0822766
0.157549 0.122225 0.0776837
0.173297 0.12253 0.0715953
0.189395 0.122637 0.0656291
0.205753 0.122621 0.0601816
0.222568 0.122271 0.0541085
0.240421 0.121508 0.0460975
0.259648 0.120226 0.0371557
0.280934 0.118425 0.0269169
0.303288 0.116442 0.0168002
0.326619 0.114672 0.00776684
0.348013 0.114183 0.00309758
0.367773 0.113634 0.000244144
0.386831 0.112337 1.5259e-05
0.406195 0.11014 0
0.426246 0.106615 1.5259e-05
0.44651 0.101213 1.5259e-05
0.466972 0.0941634 1.5259e-05
0.486564 0.0857404 1.5259e-05
0.502602 0.076997 0
0.516564 0.069276 1.5259e-05
0.534325 0.0627451 0
0.556817 0.0586709 1.5259e-05
0.580911 0.0550088 1.5259e-05
0.606607 0.0519875 1.5259e-05
0.632776 0.0498817 3.0518e-05
0.658488 0.0484779 0
0.676692 0.0486305 3.0518e-05
0.0746319 0.138293 0.0986801
0.0863661 0.13814 0.0984054
0.101045 0.136217 0.0961776
0.115053 0.1346 0.094255
0.130175 0.133608 0.0915084
0.145251 0.132662 0.0886702
0.160678 0.132555 0.0841077
0.176471 0.132815 0.0776837
0.192569 0.133059 0.0711223
0.209171 0.132631 0.0639963
0.226398 0.131945 0.0563211
0.24419 0.131395 0.0478218
0.263386 0.130144 0.0379797
0.284276 0.128527 0.0269474
0.305669 0.126848 0.0163424
0.327642 0.125643 0.00741588
0.348684 0.125933 0.0027924
0.3682 0.12639 0.000274662
0.388098 0.125811 1.5259e-05
0.408453 0.124041 0
0.429633 0.121477 0
0.451255 0.118135 0
0.473152 0.113649 0
0.494179 0.106966 0
0.511101 0.0987106 0
0.525002 0.0910353 1.5259e-05
0.538521 0.0830854 0
0.552071 0.0751202 1.5259e-05
0.566873 0.0671092 1.5259e-05
0.590127 0.0628214 1.5259e-05
0.615824 0.0604715 1.5259e-05
0.642634 0.0589914 0
0.665125 0.0576486 1.5259e-05
0.0775769 0.150301 0.104219
0.0887007 0.150103 0.103822
0.103487 0.148379 0.102083
0.117723 0.147021 0.100633
0.132982 0.145205 0.0980087
0.148318 0.143572 0.0952926
0.163684 0.143053 0.0911574
0.179232 0.143587 0.0855573
0.195285 0.143938 0.0791028
0.212268 0.143297 0.0695659
0.229908 0.142519 0.0595712
0.248508 0.14168 0.0502632
0.268147 0.140398 0.039826
0.288731 0.138735 0.0278935
0.310063 0.137346 0.0168612
0.332006 0.1364 0.00759899
0.352468 0.13698 0.00260929
0.371725 0.138338 0.000320439
0.390448 0.139025 3.0518e-05
0.410834 0.138231 1.5259e-05
0.432853 0.13611 0
0.45539 0.133577 1.5259e-05
0.478065 0.130098 1.5259e-05
0.500526 0.125139 1.5259e-05
0.519341 0.118959 0
0.533486 0.112749 0
0.5467 0.106004 0
0.560357 0.0982986 1.5259e-05
0.575372 0.0907607 1.5259e-05
0.591897 0.0835584 1.5259e-05
0.60943 0.076997 1.5259e-05
0.629221 0.0714275 0
0.650385 0.0680705 1.5259e-05
0.0806744 0.162219 0.109712
0.0911269 0.162188 0.109178
0.105882 0.160861 0.107912
0.120134 0.159472 0.106661
0.135744 0.157305 0.104372
0.1514 0.155001 0.101823
0.166812 0.154192 0.0982834
0.182147 0.154604 0.0934768
0.198032 0.155001 0.0873579
0.21529 0.154421 0.0760815
0.23357 0.153658 0.0640574
0.252461 0.152361 0.0534981
0.272801 0.151003 0.0417792
0.293248 0.149386 0.0289616
0.314611 0.148058 0.0173648
0.336812 0.147433 0.00784314
0.357885 0.147906 0.00238041
0.378042 0.149599 0.000244144
0.397421 0.151202 3.0518e-05
0.417411 0.151156 1.5259e-05
0.438132 0.150332 0
0.460166 0.149294 0
0.483192 0.147127 1.5259e-05
0.507012 0.143618 3.0518e-05
0.528115 0.138918 1.5259e-05
0.542504 0.133227 1.5259e-05
0.555749 0.127428 0
0.569482 0.121767 1.5259e-05
0.583444 0.114946 0
0.598566 0.108278 1.5259e-05
0.615854 0.102052 1.5259e-05
0.634409 0.0963607 1.5259e-05
0.652918 0.0916457 0
0.0843519 0.174563 0.115389
0.093843 0.17467 0.11487
0.107897 0.173754 0.113512
0.12192 0.173358 0.112474
0.137682 0.170657 0.110292
0.154009 0.167422 0.107881
0.169848 0.166155 0.105165
0.185061 0.166461 0.101717
0.200916 0.166674 0.0968185
0.218112 0.166491 0.0860761
0.236301 0.166369 0.0745708
0.255756 0.164736 0.0604715
0.276417 0.162951 0.0455329
0.297765 0.161212 0.0315251
0.319875 0.160098 0.0187991
0.342321 0.159335 0.00819409
0.36405 0.159838 0.00236515
0.385107 0.16173 0.000198367
0.404608 0.163531 3.0518e-05
0.424704 0.164935 1.5259e-05
0.444831 0.165072 0
0.46569 0.164782 0
0.488228 0.163424 1.5259e-05
0.512337 0.160937 1.5259e-05
0.535317 0.158114 1.5259e-05
0.551705 0.154223 1.5259e-05
0.566201 0.150088 0
0.58024 0.1449 1.5259e-05
0.594919 0.13933 1.5259e-05
0.610071 0.134066 1.5259e-05
0.626078 0.128664 1.5259e-05
0.642756 0.123445 1.5259e-05
0.658885 0.119188 1.5259e-05
0.0881971 0.187213 0.121126
0.0966354 0.18735 0.12047
0.109819 0.187335 0.119356
0.123507 0.187472 0.118166
0.139422 0.18468 0.116304
0.156512 0.180774 0.114183
0.172625 0.178317 0.111986
0.188022 0.178775 0.110018
0.203647 0.178759 0.106569
0.220935 0.179324 0.0965744
0.239063 0.179431 0.0854047
0.258946 0.177707 0.0678874
0.28011 0.175555 0.0494392
0.302464 0.173968 0.0345464
0.324971 0.172503 0.0202029
0.348013 0.171725 0.00854505
0.370993 0.172763 0.00231937
0.393668 0.17499 0.000183108
0.414496 0.177096 1.5259e-05
0.434623 0.178729 1.5259e-05
0.453941 0.17966 0
0.473564 0.180392 0
0.494652 0.180407 1.5259e-05
0.517815 0.179355 0
0.5411 0.177386 1.5259e-05
0.559487 0.174151 1.5259e-05
0.574609 0.171008 1.5259e-05
0.589883 0.167666 3.0518e-05
0.606043 0.164248 1.5259e-05
0.622705 0.161227 0
0.640497 0.15819 1.5259e-05
0.658396 0.1552 0
0.675334 0.152026 0
0.0933852 0.200336 0.127047
0.100481 0.20032 0.126207
0.112032 0.200641 0.125063
0.12459 0.201236 0.12401
0.140185 0.199405 0.122774
0.15816 0.195911 0.121523
0.175296 0.193515 0.120012
0.19057 0.192996 0.117403
0.206363 0.192432 0.114336
0.223545 0.192996 0.107057
0.241581 0.193408 0.0991836
0.261448 0.192187 0.0813764
0.282979 0.190677 0.0620127
0.305806 0.188449 0.0419318
0.329534 0.18674 0.0239261
0.353948 0.185702 0.00959792
0.377829 0.186587 0.0028687
0.402335 0.189258 0.000381476
0.424903 0.191791 3.0518e-05
0.445487 0.193576 1.5259e-05
0.465187 0.19501 1.5259e-05
0.485069 0.196048 1.5259e-05
0.505821 0.196841 1.5259e-05
0.528237 0.197574 1.5259e-05
0.550042 0.197024 1.5259e-05
0.568765 0.195621 0
0.583886 0.193164 1.5259e-05
0.599069 0.190845 3.0518e-05
0.615763 0.18883 3.0518e-05
0.633387 0.186984 1.5259e-05
0.65156 0.184939 1.5259e-05
0.670588 0.183612 1.5259e-05
0.689509 0.182834 1.5259e-05
0.0988785 0.21384 0.132937
0.104799 0.214008 0.132158
0.114168 0.214603 0.130999
0.125673 0.215549 0.129809
0.1402 0.214969 0.129152
0.159167 0.211963 0.129152
0.177554 0.209339 0.128527
0.192844 0.208286 0.125551
0.208484 0.20676 0.122393
0.225666 0.207431 0.117739
0.243732 0.208057 0.112795
0.263706 0.207614 0.0960555
0.285237 0.206806 0.0762951
0.308721 0.204227 0.0512093
0.333623 0.201846 0.0282444
0.359747 0.200824 0.0110018
0.385229 0.202472 0.00392157
0.410834 0.205142 0.000991836
0.435004 0.207919 0.000122072
0.45658 0.210376 1.5259e-05
0.476753 0.211826 0
0.497459 0.213626 1.5259e-05
0.518334 0.215167 1.5259e-05
0.539696 0.216678 3.0518e-05
0.561044 0.217823 1.5259e-05
0.579461 0.218265 1.5259e-05
0.594598 0.217258 1.5259e-05
0.609293 0.215961 0
0.626215 0.214786 1.5259e-05
0.644404 0.213931 1.5259e-05
0.663447 0.213519 1.5259e-05
0.683146 0.213565 1.5259e-05
0.703151 0.214008 1.5259e-05
0.105669 0.228321 0.139071
0.110643 0.228626 0.138277
0.11725 0.229084 0.137346
0.127733 0.23032 0.135973
0.139544 0.231189 0.135149
0.158618 0.229343 0.135531
0.177661 0.22771 0.135836
0.194049 0.225467 0.134035
0.21088 0.222553 0.132036
0.227604 0.22295 0.128374
0.24506 0.224048 0.123934
0.264927 0.22414 0.111711
0.286732 0.223728 0.0959793
0.310552 0.221836 0.0700542
0.336217 0.219409 0.0422827
0.363775 0.217304 0.016968
0.390845 0.218524 0.00561532
0.418341 0.221439 0.00141909
0.444358 0.225147 0.000610361
0.467109 0.228122 0.000427253
0.488609 0.230335 3.0518e-05
0.510323 0.232822 0
0.532036 0.235248 0
0.553994 0.237613 1.5259e-05
0.576562 0.239719 0
0.597162 0.241123 0
0.612604 0.241642 1.5259e-05
0.626459 0.241459 0
0.642206 0.241321 0
0.659159 0.241871 1.5259e-05
0.677256 0.242481 1.5259e-05
0.696666 0.243656 1.5259e-05
0.71664 0.245731 0
0.113344 0.243824 0.145403
0.117098 0.244068 0.144564
0.120943 0.244663 0.144015
0.130083 0.246357 0.142641
0.138857 0.247715 0.141283
0.157031 0.24741 0.141955
0.176471 0.247089 0.142733
0.194308 0.244907 0.142397
0.212284 0.241474 0.141878
0.229526 0.240513 0.139361
0.246769 0.241535 0.135134
0.265827 0.241962 0.126833
0.287236 0.242359 0.115724
0.311589 0.241596 0.0929732
0.338003 0.239261 0.0628214
0.366567 0.235843 0.0271763
0.39556 0.235737 0.00784314
0.424918 0.239322 0.00248722
0.452934 0.243595 0.00134279
0.477165 0.247471 0.00131228
0.499718 0.25005 0.000106813
0.521935 0.25272 0
0.544366 0.255863 0
0.567269 0.259068 1.5259e-05
0.591073 0.262303 1.5259e-05
0.613901 0.265019 0
0.630671 0.266377 1.5259e-05
0.645396 0.267155 0
0.66125 0.26804 0
0.677699 0.269383 0
0.695186 0.271366 3.0518e-05
0.713695 0.273716 3.0518e-05
0.732036 0.276692 1.5259e-05
0.121447 0.260746 0.151873
0.124407 0.261204 0.151476
0.12755 0.261845 0.150988
0.133303 0.263249 0.150134
0.140627 0.265263 0.149065
0.153567 0.266728 0.148943
0.173419 0.268193 0.149737
0.192706 0.267887 0.150256
0.211505 0.263615 0.151537
0.230579 0.260349 0.151186
0.248264 0.260899 0.146319
0.267002 0.261585 0.140764
0.287022 0.262928 0.134295
0.31104 0.263172 0.118837
0.338064 0.261875 0.0919203
0.367773 0.257252 0.0452735
0.39913 0.255039 0.0116426
0.429297 0.258701 0.00494392
0.460212 0.2636 0.00181582
0.486488 0.268162 0.00138857
0.509392 0.271489 0.00122072
0.532158 0.274846 0.00114443
0.555352 0.278325 0.000915541
0.579599 0.281804 3.0518e-05
0.604074 0.285557 0
0.628183 0.289311 0
0.64683 0.291341 3.0518e-05
0.662547 0.29276 1.5259e-05
0.678859 0.294041 0
0.696315 0.295964 1.5259e-05
0.714717 0.298375 1.5259e-05
0.733349 0.301076 0
0.752392 0.304036 0
0.129549 0.278264 0.15819
0.132021 0.278904 0.158022
0.134859 0.279896 0.157778
0.138048 0.281209 0.157595
0.144198 0.28365 0.156405
0.150515 0.286442 0.155688
0.169314 0.288731 0.156603
0.187594 0.291737 0.157107
0.20853 0.288579 0.159197
0.230823 0.284932 0.161776
0.249393 0.283818 0.159121
0.268864 0.282887 0.156054
0.28893 0.285389 0.150805
0.311177 0.28661 0.140368
0.336751 0.287114 0.122789
0.367819 0.284215 0.0859236
0.399954 0.279774 0.0339055
0.433188 0.281163 0.0102235
0.465248 0.285939 0.00425727
0.49337 0.291051 0.00375372
0.517647 0.294896 0.00367742
0.54197 0.298421 0.0015259
0.565606 0.302419 0.00148013
0.589975 0.306142 0.000991836
0.615015 0.310307 0.000885023
0.640055 0.314153 0.00077821
0.661311 0.316899 1.5259e-05
0.67808 0.318608 0
0.695048 0.320439 1.5259e-05
0.71284 0.322576 1.5259e-05
0.731563 0.325231 0
0.750469 0.327947 0
0.769848 0.331334 1.5259e-05
0.137575 0.296223 0.16434
0.139849 0.296956 0.164279
0.142443 0.29839 0.164462
0.145129 0.300053 0.164736
0.149111 0.302785 0.163897
0.15378 0.305898 0.1626
0.166125 0.309178 0.163043
0.183642 0.31313 0.163973
0.204059 0.313817 0.165972
0.228092 0.312047 0.169497
0.249439 0.309819 0.170169
0.270375 0.306386 0.169711
0.290898 0.308186 0.163928
0.313115 0.310323 0.156466
0.337346 0.312856 0.146563
0.366293 0.312642 0.121843
0.400076 0.308873 0.0768902
0.434073 0.306798 0.0327916
0.467674 0.309377 0.0113375
0.498497 0.314183 0.00523384
0.524666 0.318563 0.00463874
0.549599 0.323064 0.00375372
0.573892 0.327184 0.00329595
0.599054 0.331167 0.00170901
0.624369 0.335653 0.00173953
0.650538 0.340322 0.00177005
0.67425 0.343587 0.000717174
0.692485 0.345892 0.000610361
0.709789 0.347768 0.000518807
0.728115 0.349966 6.10361e-05
0.747143 0.352636 0
0.766659 0.355718 1.5259e-05
0.786664 0.359335 0
0.144961 0.313954 0.170001
0.147433 0.315465 0.170336
0.149859 0.316915 0.170657
0.152544 0.319234 0.171237
0.15523 0.321691 0.171405
0.15845 0.325612 0.170184
0.164492 0.329473 0.169741
0.181125 0.334127 0.170687
0.199115 0.338109 0.171847
0.224002 0.338552 0.175982
0.248173 0.337423 0.178866
0.271412 0.333623 0.180255
0.293004 0.332586 0.176822
0.315251 0.333379 0.170962
0.339513 0.336904 0.160678
0.366445 0.338979 0.146059
0.398016 0.337972 0.114626
0.432456 0.334325 0.0669871
0.467857 0.333791 0.0277409
0.500404 0.337621 0.0119936
0.529152 0.342565 0.00828565
0.555215 0.346914 0.00500496
0.580194 0.351614 0.00491341
0.605768 0.356207 0.0037995
0.631724 0.361181 0.00370794
0.659495 0.366217 0.00215152
0.685359 0.370901 0.00192264
0.704646 0.37348 0.0019379
0.722515 0.375738 0.00196841
0.741909 0.377844 0.000656138
0.761654 0.380789 0.000442512
0.781735 0.384131 0.000381476
0.801938 0.387793 0.000137331
0.152239 0.332921 0.176104
0.154589 0.334798 0.176455
0.157031 0.336873 0.176913
0.159548 0.339055 0.177432
0.162219 0.341665 0.178286
0.164797 0.3458 0.177417
0.167727 0.350362 0.176547
0.181048 0.355932 0.177325
0.19408 0.361791 0.176959
0.219532 0.364004 0.181308
0.24564 0.365637 0.185351
0.270863 0.362325 0.187793
0.294179 0.359319 0.187411
0.317189 0.357534 0.184344
0.341604 0.359976 0.175036
0.367834 0.363287 0.163119
0.39704 0.365454 0.142199
0.429679 0.364111 0.105684
0.465141 0.36112 0.0595102
0.499992 0.360983 0.0241245
0.530648 0.365606 0.0143435
0.557687 0.370275 0.0105592
0.583734 0.375051 0.00814832
0.610346 0.379904 0.00547799
0.637125 0.385611 0.00560006
0.665339 0.391073 0.00430304
0.693263 0.396643 0.00395209
0.714717 0.399817 0.0031281
0.733715 0.402213 0.00205997
0.753277 0.405158 0.00209049
0.773663 0.40856 0.00213626
0.794079 0.412116 0.00215152
0.815015 0.415656 0.00108339
0.159472 0.353231 0.182391
0.161639 0.355047 0.182742
0.163745 0.357595 0.183108
0.166064 0.360449 0.183795
0.168704 0.363867 0.18468
0.171359 0.36762 0.184741
0.173739 0.372534 0.183871
0.181994 0.378164 0.183719
0.193301 0.384634 0.183047
0.21471 0.389136 0.185748
0.240574 0.393683 0.189883
0.267659 0.391226 0.193057
0.293873 0.388281 0.194751
0.318318 0.384817 0.194446
0.342367 0.384115 0.188052
0.368811 0.386816 0.175982
0.39704 0.390326 0.161013
0.427817 0.392569 0.136248
0.461723 0.391485 0.0980697
0.495781 0.388632 0.0555886
0.529427 0.389075 0.028687
0.558022 0.39263 0.0175479
0.584833 0.397757 0.0141146
0.61236 0.403098 0.0107729
0.640452 0.40827 0.00740063
0.669108 0.413977 0.0059968
0.698421 0.420325 0.00613413
0.721645 0.424414 0.00555428
0.741711 0.427253 0.0043946
0.762036 0.430396 0.00381476
0.783597 0.4336 0.00221256
0.804593 0.437232 0.00224308
0.825422 0.441215 0.00227359
0.166354 0.374533 0.188418
0.168399 0.376623 0.18883
0.17023 0.379431 0.189181
0.172183 0.382376 0.1897
0.174502 0.386236 0.190372
0.177035 0.390356 0.191058
0.1794 0.395483 0.190143
0.183658 0.400992 0.189273
0.193347 0.407645 0.188434
0.209491 0.413855 0.189563
0.234302 0.41973 0.193225
0.262226 0.419821 0.196597
0.291264 0.418112 0.199298
0.317754 0.414679 0.200244
0.342321 0.411063 0.196872
0.369116 0.411307 0.188373
0.397925 0.414786 0.173419
0.427359 0.418418 0.154589
0.459129 0.420356 0.127977
0.492775 0.41944 0.0917983
0.525429 0.417075 0.0536202
0.555215 0.416968 0.0316625
0.585016 0.420111 0.0203555
0.61268 0.425589 0.017319
0.64123 0.431189 0.0139925
0.670848 0.43682 0.0103914
0.702312 0.442756 0.00634775
0.727718 0.447761 0.00648508
0.748333 0.451209 0.00657664
0.768917 0.454383 0.00636301
0.790784 0.457832 0.00520333
0.812787 0.461311 0.00366217
0.834623 0.465187 0.00234989
0.17232 0.395789 0.193576
0.174197 0.398322 0.194003
0.175875 0.401175 0.194324
0.177447 0.404578 0.194659
0.17937 0.408713 0.195163
0.181537 0.413367 0.195911
0.183612 0.418585 0.195773
0.185382 0.424063 0.195392
0.192584 0.430869 0.19324
0.20351 0.437736 0.19237
0.228016 0.443839 0.195834
0.255497 0.446967 0.198779
0.286595 0.448142 0.201923
0.314733 0.444617 0.203281
0.341817 0.441062 0.201923
0.368917 0.43801 0.196796
0.397452 0.43859 0.185626
0.427451 0.443107 0.16672
0.457938 0.44654 0.145129
0.49015 0.448493 0.119707
0.523384 0.447944 0.0863508
0.552041 0.445563 0.0537118
0.580056 0.444785 0.03299
0.611475 0.44828 0.0265507
0.641337 0.453498 0.0203098
0.671427 0.459617 0.0171054
0.703243 0.465995 0.0133516
0.732036 0.470634 0.0077821
0.754574 0.474159 0.00680552
0.775509 0.477501 0.0069276
0.797177 0.481209 0.00701915
0.819425 0.485084 0.00672923
0.845563 0.48957 0.00714122
0.176669 0.415793 0.19765
0.178744 0.41886 0.198154
0.180621 0.422004 0.198718
0.181735 0.425528 0.198749
0.1832 0.429679 0.199039
0.184985 0.434958 0.199512
0.186847 0.440467 0.199512
0.188479 0.446586 0.199084
0.193408 0.453544 0.197513
0.19852 0.460929 0.194507
0.221775 0.467262 0.197177
0.247669 0.472724 0.199603
0.280354 0.476707 0.20293
0.30988 0.474647 0.204486
0.339162 0.471122 0.203983
0.36762 0.466758 0.200534
0.396033 0.464256 0.192752
0.426505 0.467063 0.178759
0.457694 0.471641 0.158618
0.488869 0.475196 0.136263
0.520775 0.476493 0.109682
0.550271 0.475593 0.0822614
0.577981 0.474098 0.0560922
0.606714 0.47396 0.0367742
0.63859 0.476783 0.0292363
0.671229 0.481987 0.0241398
0.703761 0.488472 0.019791
0.733394 0.493996 0.0165255
0.759014 0.497368 0.0107271
0.78114 0.500252 0.0078584
0.803952 0.504219 0.00726329
0.826383 0.508171 0.00737011
0.852277 0.515846 0.0243992
0.179995 0.435126 0.200946
0.181842 0.438422 0.201312
0.183749 0.441764 0.201831
0.185168 0.445502 0.201953
0.186252 0.449592 0.202045
0.187686 0.455344 0.202167
0.189258 0.461326 0.202319
0.190585 0.468071 0.201831
0.193713 0.475151 0.20058
0.198108 0.482765 0.197833
0.215839 0.489845 0.198108
0.2392 0.496635 0.1991
0.272435 0.502708 0.201877
0.30367 0.502495 0.203616
0.334707 0.499748 0.203906
0.365362 0.495583 0.201816
0.39472 0.491768 0.196109
0.42417 0.490578 0.185458
0.456458 0.495323 0.168154
0.488441 0.499901 0.146654
0.519463 0.503044 0.125444
0.547997 0.503731 0.102815
0.575982 0.503349 0.0796674
0.604883 0.50309 0.0580911
0.634836 0.503868 0.0419623
0.667765 0.506264 0.0340276
0.702983 0.511208 0.0271305
0.7355 0.517082 0.0225223
0.761913 0.521538 0.0194858
0.784756 0.524971 0.0166781
0.808881 0.527886 0.010956
0.832471 0.531518 0.00877394
0.858351 0.542428 0.0423743
0.182696 0.454704 0.203494
0.184207 0.458244 0.203662
0.18587 0.461952 0.204028
0.187381 0.465812 0.204303
0.188418 0.470344 0.204135
0.189395 0.476356 0.203952
0.190616 0.482811 0.203922
0.191714 0.489799 0.203357
0.193423 0.497047 0.202319
0.197101 0.504936 0.199573
0.21033 0.512657 0.198581
0.231006 0.520378 0.198276
0.264103 0.527779 0.200412
0.296773 0.529412 0.201846
0.329366 0.527687 0.202136
0.361852 0.523919 0.200641
0.392721 0.519936 0.196063
0.422415 0.51632 0.187701
0.453773 0.517769 0.174136
0.486961 0.523247 0.154604
0.5187 0.527489 0.131777
0.546654 0.529854 0.114961
0.573831 0.531106 0.0977035
0.602914 0.531426 0.0771801
0.632929 0.532128 0.0589151
0.664607 0.533639 0.046128
0.699229 0.536645 0.0381018
0.735668 0.541421 0.0331426
0.765606 0.545876 0.0270695
0.788739 0.549157 0.0228122
0.812406 0.552682 0.0197299
0.83682 0.556207 0.016083
0.86389 0.56939 0.0604562
0.184878 0.47512 0.205341
0.186007 0.478843 0.20528
0.187442 0.483024 0.20557
0.188922 0.487388 0.205921
0.189807 0.492592 0.205661
0.190539 0.498466 0.205051
0.191226 0.505455 0.20441
0.192065 0.512779 0.2038
0.192752 0.520378 0.20296
0.195636 0.528466 0.199954
0.204456 0.536919 0.19765
0.222873 0.545007 0.196246
0.255039 0.552666 0.197391
0.289067 0.557153 0.198505
0.322972 0.557244 0.198703
0.357473 0.55375 0.197528
0.390036 0.549813 0.193515
0.420951 0.545251 0.186725
0.451026 0.542062 0.176089
0.484642 0.546471 0.159747
0.517861 0.551736 0.138903
0.546365 0.554742 0.116411
0.572457 0.556878 0.107271
0.600412 0.558419 0.0914473
0.630961 0.559304 0.0743725
0.662623 0.560769 0.0590677
